!!!!SEGMENT: pl-wumfc--n68232--001-017_moniuszko-stanislaw--paria-wyciag-fortepianowy-akt-ii-scena-iii-chor-braminek.krn
!!!cenid: 18xx:4147
!!!COM: Moniuszko, Stanisław
!!!COM-rismID: pe30008351
!!!CDT: 1819/05/05-1872/06/04
!!!CNT: Polish
!!!GTL: Paria – wyciąg fortepianowy
!!!OTL: Akt II. Scena III. Chór Braminek
!!!OMV: 017
!!!PDT:
!!!AGN: Secular; Opera
!!!YEC: Copyright 2022 Narodowy Instytut Fryderyka Chopina (https://polishscores.org)
!!!YEM: License CC-BY-4.0 (https://creativecommons.org/licenses/by/4.0)
!!!SMS-siglum: PL-Wumfc
!!!SMS-shelfmark: N68232
!!!SMS-shelfwork: 001-017 G
!!!SMS-variant:
!!!SMS-altvar:
!!!NIFC-rismSourceID: 1001171381
!!!NIFC-rismChildID: 1001171381
!!!NIFC-islandoraID: pl-wumfc:7210
!!!URL-pdf-islandora: https://repozytorium.nifc.pl/islandora/object/pl-wumfc%3A7210/datastream/PDF/view
!!!URL-scan: https://polish.musicsources.pl/pl/lokalizacje/galeria/druki-muzyczne/12634/1 @EN{Scan on Polish Music Sources Website} @PL{Skany w portalu Dziedzictwo Muzyki Polskiej w otwartym dostępie}
!!!IIIF:
!!!ONB-nifc: UWAGA: str. 66-70. Uwaga: proszę w pliku umieszczać obsadę, która występuje tylko w danej części.
!!!AIN: 1 alto 2 piano 1 soprn 2 vox
!!!key:
**kern	**fing	**kern	**fing	**dynam	**kern	**text	**text	**dynam	**kern	**text	**text	**dynam	**kern	**text	**text	**dynam	**kern	**text	**text	**dynam
*part6	*	*	*	*	*part4	*	*	*	*part3	*	*	*	*part2	*	*	*	*part1	*	*	*
*staff6	*	*staff5	*	*	*staff4	*	*	*	*staff3	*	*	*	*staff2	*	*	*	*staff1	*	*	*
*I"[Fortepian.]	*	*I"[Fortepian.]	*	*	*I"Braminki	*	*	*	*I"Braminki	*	*	*	*I"[Braminka Solo]	*	*	*	*I"Neala. Neala.	*	*	*
*I'[pf]	*	*I'[pf]	*	*	*I'A.	*	*	*	*I'S.	*	*	*	*I'[V]	*	*	*	*I'N.	*	*	*
*ICklav	*	*ICklav	*	*	*ICvox	*	*	*	*ICvox	*	*	*	*ICvox	*	*	*	*ICvox	*	*	*
*Ipiano	*	*Ipiano	*	*	*Ialto	*	*	*	*Isoprn	*	*	*	*Ivox	*	*	*	*Ivox	*	*	*
*clefF4	*	*clefG2	*	*	*clefG2	*	*	*	*clefG2	*	*	*	*clefG2	*	*	*	*clefG2	*	*	*
*k[f#c#]	*	*k[f#c#]	*	*	*k[f#c#]	*	*	*	*k[f#c#]	*	*	*	*k[f#c#]	*	*	*	*k[f#c#]	*	*	*
*B:	*	*B:	*	*	*B:	*	*	*	*B:	*	*	*	*B:	*	*	*	*B:	*	*	*
*M6/8	*	*M6/8	*	*	*M6/8	*	*	*	*M6/8	*	*	*	*M6/8	*	*	*	*M6/8	*	*	*
=1	=1	=1	=1	=1	=1	=1	=1	=1	=1	=1	=1	=1	=1	=1	=1	=1	=1	=1	=1	=1
!	!	!LO:TX:a:B:t=Allegretto.	!	!	!	!	!	!	!	!	!	!	!	!	!	!	!	!	!	!
!	!	!LO:TX:b:t=Q. (con sord.)	!	!	!	!	!	!	!	!	!	!	!	!	!	!	!	!	!	!
2.r	.	[2.b\ [2.dd [2.ff#	.	pp	2.ryy	.	.	.	2.ryy	.	.	.	2.ryy	.	.	.	2.ryy	.	.	.
=2	=2	=2	=2	=2	=2	=2	=2	=2	=2	=2	=2	=2	=2	=2	=2	=2	=2	=2	=2	=2
2.r	.	2.b\] 2.dd] 2.ff#]	.	.	2.ryy	.	.	.	2.ryy	.	.	.	2.ryy	.	.	.	2.ryy	.	.	.
=3	=3	=3	=3	=3	=3	=3	=3	=3	=3	=3	=3	=3	=3	=3	=3	=3	=3	=3	=3	=3
2.r	.	([4.b\ [4.dd [4.ff#	.	.	2.ryy	.	.	.	2.ryy	.	.	.	2.ryy	.	.	.	2.ryy	.	.	.
.	.	4b\] 4dd] 4ff#]	.	.	.	.	.	.	.	.	.	.	.	.	.	.	.	.	.	.
.	.	8f#/) 8b 8dd	.	.	.	.	.	.	.	.	.	.	.	.	.	.	.	.	.	.
=4	=4	=4	=4	=4	=4	=4	=4	=4	=4	=4	=4	=4	=4	=4	=4	=4	=4	=4	=4	=4
2.r	.	([4.b\ [4.dd [4.ff#	.	.	2.ryy	.	.	.	2.ryy	.	.	.	2.ryy	.	.	.	2.ryy	.	.	.
.	.	4b\] 4dd] 4ff#]	.	.	.	.	.	.	.	.	.	.	.	.	.	.	.	.	.	.
.	.	8f#/) 8b 8dd	.	.	.	.	.	.	.	.	.	.	.	.	.	.	.	.	.	.
=5	=5	=5	=5	=5	=5	=5	=5	=5	=5	=5	=5	=5	=5	=5	=5	=5	=5	=5	=5	=5
[2.f#^\	.	(4a\ 4cc# 4ff#	.	.	2.ryy	.	.	.	2.ryy	.	.	.	2.ryy	.	.	.	2.ryy	.	.	.
.	.	8a\ 8cc#	.	.	.	.	.	.	.	.	.	.	.	.	.	.	.	.	.	.
.	.	8a\L	.	.	.	.	.	.	.	.	.	.	.	.	.	.	.	.	.	.
.	.	8a\ 8cc#	.	.	.	.	.	.	.	.	.	.	.	.	.	.	.	.	.	.
.	.	8a\J) 8ff#	.	.	.	.	.	.	.	.	.	.	.	.	.	.	.	.	.	.
=6	=6	=6	=6	=6	=6	=6	=6	=6	=6	=6	=6	=6	=6	=6	=6	=6	=6	=6	=6	=6
4f#\]	.	([4.cc#\ [4.aa	.	.	2.ryy	.	.	.	2.ryy	.	.	.	2.ryy	.	.	.	2.ryy	.	.	.
(8c#\	.	.	.	.	.	.	.	.	.	.	.	.	.	.	.	.	.	.	.	.
4f#\	.	4cc#\] 4aa]	.	.	.	.	.	.	.	.	.	.	.	.	.	.	.	.	.	.
8c#\)	.	8f#\) 8a 8ff#	.	.	.	.	.	.	.	.	.	.	.	.	.	.	.	.	.	.
=7	=7	=7	=7	=7	=7	=7	=7	=7	=7	=7	=7	=7	=7	=7	=7	=7	=7	=7	=7	=7
([4.d^\	.	[2.f#\ [2.a [2.ff#	.	.	2.ryy	.	.	.	2.ryy	.	.	.	2.ryy	.	.	.	2.ryy	.	.	.
4d\]	.	.	.	.	.	.	.	.	.	.	.	.	.	.	.	.	.	.	.	.
8A\)	.	.	.	.	.	.	.	.	.	.	.	.	.	.	.	.	.	.	.	.
!!LO:LB:g=original	!	!	!	!	!	!	!	!	!	!	!	!	!	!	!	!	!	!
=8	=8	=8	=8	=8	=8	=8	=8	=8	=8	=8	=8	=8	=8	=8	=8	=8	=8	=8	=8	=8
(4d\	.	2.f#\] 2.a] 2.ff#]	.	.	2.ryy	.	.	.	2.ryy	.	.	.	2.ryy	.	.	.	2.ryy	.	.	.
8A\	.	.	.	.	.	.	.	.	.	.	.	.	.	.	.	.	.	.	.	.
4d\	.	.	.	.	.	.	.	.	.	.	.	.	.	.	.	.	.	.	.	.
8A\)	.	.	.	.	.	.	.	.	.	.	.	.	.	.	.	.	.	.	.	.
=9	=9	=9	=9	=9	=9	=9	=9	=9	=9	=9	=9	=9	=9	=9	=9	=9	=9	=9	=9	=9
([2.c#\	.	(4a\ 4cc#	.	.	2.ryy	.	.	.	2.ryy	.	.	.	2.ryy	.	.	.	2.ryy	.	.	.
.	.	8f#/ 8a	.	.	.	.	.	.	.	.	.	.	.	.	.	.	.	.	.	.
.	.	8A/L 8f#	.	.	.	.	.	.	.	.	.	.	.	.	.	.	.	.	.	.
.	.	8f#/ 8a	.	.	.	.	.	.	.	.	.	.	.	.	.	.	.	.	.	.
.	.	8a/J 8cc#	.	.	.	.	.	.	.	.	.	.	.	.	.	.	.	.	.	.
=10	=10	=10	=10	=10	=10	=10	=10	=10	=10	=10	=10	=10	=10	=10	=10	=10	=10	=10	=10	=10
4c#\]	.	[4.a\ [4.cc# [4.ff#	.	.	2.ryy	.	.	.	2.ryy	.	.	.	2.ryy	.	.	.	2.ryy	.	.	.
8d#X\	.	.	.	.	.	.	.	.	.	.	.	.	.	.	.	.	.	.	.	.
4f#^\	.	4a\] 4cc#] 4ff#]	.	.	.	.	.	.	.	.	.	.	.	.	.	.	.	.	.	.
8e\)	.	8a\) 8cc#	.	.	.	.	.	.	.	.	.	.	.	.	.	.	.	.	.	.
=11	=11	=11	=11	=11	=11	=11	=11	=11	=11	=11	=11	=11	=11	=11	=11	=11	=11	=11	=11	=11
*	*	*^	*	*	*	*	*	*	*	*	*	*	*	*	*	*	*	*	*	*
([2.e\	.	([4.cc#/	2.f#\ 2.a	.	.	2.ryy	.	.	.	2.ryy	.	.	.	2.ryy	.	.	.	2.ryy	.	.	.
.	.	4cc#/]	.	.	.	.	.	.	.	.	.	.	.	.	.	.	.	.	.	.	.
.	.	8b#X/)	.	.	.	.	.	.	.	.	.	.	.	.	.	.	.	.	.	.	.
=12	=12	=12	=12	=12	=12	=12	=12	=12	=12	=12	=12	=12	=12	=12	=12	=12	=12	=12	=12	=12	=12
4e\]	.	([4.cc#/	2.f#\ 2.a	.	.	2.ryy	.	.	.	2.ryy	.	.	.	2.ryy	.	.	.	2.ryy	.	.	.
8d#X\	.	.	.	.	.	.	.	.	.	.	.	.	.	.	.	.	.	.	.	.	.
4e^\	.	4cc#/]	.	.	.	.	.	.	.	.	.	.	.	.	.	.	.	.	.	.	.
8d#\)	.	8b#X/)	.	.	.	.	.	.	.	.	.	.	.	.	.	.	.	.	.	.	.
=13	=13	=13	=13	=13	=13	=13	=13	=13	=13	=13	=13	=13	=13	=13	=13	=13	=13	=13	=13	=13	=13
[2.e\	.	(4cc#^/	2.f#\ 2.a	.	.	2.ryy	.	.	.	2.ryy	.	.	.	2.ryy	.	.	.	2.ryy	.	.	.
.	.	8b#X/)	.	.	.	.	.	.	.	.	.	.	.	.	.	.	.	.	.	.	.
.	.	(4b#^/	.	.	.	.	.	.	.	.	.	.	.	.	.	.	.	.	.	.	.
.	.	8cc#/)	.	.	.	.	.	.	.	.	.	.	.	.	.	.	.	.	.	.	.
!!LO:LB:g=original	!	!	!	!	!	!	!	!	!	!	!	!	!	!	!	!	!	!	!
=14	=14	=14	=14	=14	=14	=14	=14	=14	=14	=14	=14	=14	=14	=14	=14	=14	=14	=14	=14	=14	=14
4e\]	.	(4.cc#/	4.f#\ 4.a	.	.	2.ryy	.	.	.	2.ryy	.	.	.	2.ryy	.	.	.	2.ryy	.	.	.
8d#X\	.	.	.	.	.	.	.	.	.	.	.	.	.	.	.	.	.	.	.	.	.
4f#^\	.	4.b#X/)	4.a\	.	.	.	.	.	.	.	.	.	.	.	.	.	.	.	.	.	.
8e\	.	.	.	.	.	.	.	.	.	.	.	.	.	.	.	.	.	.	.	.	.
*	*	*v	*v	*	*	*	*	*	*	*	*	*	*	*	*	*	*	*	*	*	*
=15	=15	=15	=15	=15	=15	=15	=15	=15	=15	=15	=15	=15	=15	=15	=15	=15	=15	=15	=15	=15
*^	*	*	*	*	*	*	*	*	*	*	*	*	*	*	*	*	*	*	*	*
!LO:TX:t=P:problem: nuty 2.f# 2.a 2.b 4.e bracketed notes	!	!	!	!	!	!	!	!	!	!	!	!	!	!	!	!	!	!	!	!	!
!LO:TX:a:i:t=m.s.	!LO:TX:b:t=Fag.	!	!	!	!	!	!	!	!	!	!	!	!	!	!	!	!	!	!	!	!
2.f#>\ 2.a> 2.b>	(>[>4.e^>\	.	8rgg	.	.	2.ryy	.	.	.	2.ryy	.	.	.	2.ryy	.	.	.	2.ryy	.	.	.
.	.	.	8rgg	.	.	.	.	.	.	.	.	.	.	.	.	.	.	.	.	.	.
!	!	!	!LO:TX:a:t=Ob.	!	!LO:DY:a	!	!	!	!	!	!	!	!	!	!	!	!	!	!	!	!
.	.	.	(8ff#/	.	pp	.	.	.	.	.	.	.	.	.	.	.	.	.	.	.	.
.	4e\]	.	[4.bb^/)	.	.	.	.	.	.	.	.	.	.	.	.	.	.	.	.	.	.
.	8d#X\)	.	.	.	.	.	.	.	.	.	.	.	.	.	.	.	.	.	.	.	.
=16	=16	=16	=16	=16	=16	=16	=16	=16	=16	=16	=16	=16	=16	=16	=16	=16	=16	=16	=16	=16	=16
!LO:TX:t=P:problem: nuty 2.f# 2.a 2.b 4.e bracketed notes	!	!	!	!	!	!	!	!	!	!	!	!	!	!	!	!	!	!	!	!	!
2.f#>\ 2.a> 2.b>	(>[>4.e^>\	.	4bb/]	.	.	2.ryy	.	.	.	2.ryy	.	.	.	2.ryy	.	.	.	2.ryy	.	.	.
.	.	.	8ff#/	.	.	.	.	.	.	.	.	.	.	.	.	.	.	.	.	.	.
.	4e\]	.	[4.bb^>/	.	.	.	.	.	.	.	.	.	.	.	.	.	.	.	.	.	.
.	8d#X\)	.	.	.	.	.	.	.	.	.	.	.	.	.	.	.	.	.	.	.	.
=17	=17	=17	=17	=17	=17	=17	=17	=17	=17	=17	=17	=17	=17	=17	=17	=17	=17	=17	=17	=17	=17
!LO:TX:t=P:problem: nuty 2.f# 2.a 2.b 4.e bracketed notes	!	!	!	!	!	!	!	!	!	!	!	!	!	!	!	!	!	!	!	!	!
4.f#>\ 4.a> 4.b>	(4e^\	.	(>4.bb/_>	.	.	2.ryy	.	.	.	2.ryy	.	.	.	2.ryy	.	.	.	2.ryy	.	.	.
.	8d#X\)	.	.	.	.	.	.	.	.	.	.	.	.	.	.	.	.	.	.	.	.
4f#>\ 4a> 4b>	(4d#^\	.	8bb/_>	.	.	.	.	.	.	.	.	.	.	.	.	.	.	.	.	.	.
.	.	.	8bb/L]	.	.	.	.	.	.	.	.	.	.	.	.	.	.	.	.	.	.
8rf>	8dn\)	.	8b/J)	.	.	.	.	.	.	.	.	.	.	.	.	.	.	.	.	.	.
*v	*v	*	*	*	*	*	*	*	*	*	*	*	*	*	*	*	*	*	*	*	*
=18	=18	=18	=18	=18	=18	=18	=18	=18	=18	=18	=18	=18	=18	=18	=18	=18	=18	=18	=18	=18
*	*	*^	*	*	*	*	*	*	*	*	*	*	*	*	*	*	*	*	*	*
(4.d^\	.	2.g#X/ 2.b	(4.f#\	.	.	2.ryy	.	.	.	2.ryy	.	.	.	2.ryy	.	.	.	2.ryy	.	.	.
4c#\)	.	.	4.e#X\)	.	.	.	.	.	.	.	.	.	.	.	.	.	.	.	.	.	.
8r	.	.	.	.	.	.	.	.	.	.	.	.	.	.	.	.	.	.	.	.	.
=19	=19	=19	=19	=19	=19	=19	=19	=19	=19	=19	=19	=19	=19	=19	=19	=19	=19	=19	=19	=19	=19
[4.c#^\ [4.en	.	8ree	[4.gn\ [4.b	.	.	2.ryy	.	.	.	2.ryy	.	.	.	2.ryy	.	.	.	2.ryy	.	.	.
.	.	8ree	.	.	.	.	.	.	.	.	.	.	.	.	.	.	.	.	.	.	.
!	!	!LO:TX:a:t=Cl.	!	!	!	!	!	!	!	!	!	!	!	!	!	!	!	!	!	!	!
.	.	8cc#/	.	.	.	.	.	.	.	.	.	.	.	.	.	.	.	.	.	.	.
(<4c#\] 4e_>	.	[4.ee/	4g\] 4b]	.	.	.	.	.	.	.	.	.	.	.	.	.	.	.	.	.	.
8F#\) 8e]	.	.	8f#\ 8a#X	.	.	.	.	.	.	.	.	.	.	.	.	.	.	.	.	.	.
!!LO:LB:g=original	!	!	!	!	!	!	!	!	!	!	!	!	!	!	!	!	!	!	!
=20	=20	=20	=20	=20	=20	=20	=20	=20	=20	=20	=20	=20	=20	=20	=20	=20	=20	=20	=20	=20	=20
!	!	!	!	!	!	!LO:TX:a:t=BRAMINKI.\nBRAMINE.	!	!	!	!	!	!	!	!LO:TX:a:t=4. głosy solowe.\n4. prime voci.	!	!	!	!	!	!	!
[4.c#^\ [4.e	.	4ee/]	[4.g\ [4.b	.	.	4r	.	.	.	4r	.	.	.	4r	.	.	.	2.ryy	.	.	.
.	.	8cc#/	.	.	.	8r	.	.	.	8r	.	.	.	8r	.	.	.	.	.	.	.
(<4c#\] 4e_	.	4.ee/	4g\] 4b]	.	.	4r	.	.	.	4r	.	.	.	4r	.	.	.	.	.	.	.
!	!	!	!	!	!	!	!	!	!LO:DY:a	!	!	!	!LO:DY:a	!	!	!	!LO:DY:a	!	!	!	!
8F#\) 8e]	.	.	8f#\ 8a#X	.	.	8f#/	.	.	p	8f#/	Ne-	Ne-	p	8f#/	Ne-	Ne-	p	.	.	.	.
*	*	*v	*v	*	*	*	*	*	*	*	*	*	*	*	*	*	*	*	*	*	*
=21||	=21||	=21||	=21||	=21||	=21||	=21||	=21||	=21||	=21||	=21||	=21||	=21||	=21||	=21||	=21||	=21||	=21||	=21||	=21||	=21||
*k[f#c#g#d#a#]	*	*k[f#c#g#d#a#]	*	*	*k[f#c#g#d#a#]	*	*	*	*k[f#c#g#d#a#]	*	*	*	*k[f#c#g#d#a#]	*	*	*	*yyk[f#c#g#d#a#]	*	*	*
8FF#/	.	(4e^/ 4gn 4b	.	.	4.e/	.	.	.	(4gn/	-a-	-a-	.	(4b\	-a-	-a-	.	2.ryy	.	.	.
8C#'\L	.	.	.	.	.	.	.	.	.	.	.	.	.	.	.	.	.	.	.	.
!LO:TX:b:i:t=il basso sempre staccato	!	!LO:TX:b:t=V-le e V-IIi. (pizz.)	!	!	!	!	!	!	!	!	!	!	!	!	!	!	!	!	!	!
8F#'\J	.	8f#/) 8a#	.	.	.	.	.	.	8f#/)	.	.	.	8a#/)	.	.	.	.	.	.	.
8c#'\L	.	(8f#/L 8a#	.	.	8e/	.	.	.	8f#/	-lo	-la,	.	8a#/L	-lo	-la,	.	.	.	.	.
8A#'\	.	8e/) 8g	.	.	8r	.	.	.	8r	.	.	.	8g#/J	.	.	.	.	.	.	.
8F#'\J	.	8e/J 8f#	.	.	8e/	.	.	.	8f#/	Ne-	Ne-	.	8f#/	Ne-	Ne-	.	.	.	.	.
=22	=22	=22	=22	=22	=22	=22	=22	=22	=22	=22	=22	=22	=22	=22	=22	=22	=22	=22	=22	=22
8FF#/	.	(4d#/ 4dd#	.	.	4d#/	.	.	.	4f#/	-a-	-a-	.	[4.dd#\	-a-	-a-	.	2.ryy	.	.	.
8D#'\L	.	.	.	.	.	.	.	.	.	.	.	.	.	.	.	.	.	.	.	.
8F#'\J	.	8d#'/) 8f#	.	.	8d#/	.	.	.	8f#/	-lo!	-la!	.	.	.	.	.	.	.	.	.
8B'\L	.	8d#'/ 8f#	.	.	8d#/	.	.	.	8f#/	ach	ah	.	4dd#\]	.	.	.	.	.	.	.
8D#'\	.	8r	.	.	8r	.	.	.	8r	.	.	.	.	.	.	.	.	.	.	.
8F#'\J	.	8d#'/ 8b	.	.	8d#/	.	.	.	8f#/	dla-	per-	.	8b\	-lo	-la,	.	.	.	.	.
=23	=23	=23	=23	=23	=23	=23	=23	=23	=23	=23	=23	=23	=23	=23	=23	=23	=23	=23	=23	=23
8FF#/	.	4c#/ 4e 4b	.	.	4e/	.	.	.	4f#/	-cze-	-che	.	4b\	cze-	che	.	2.ryy	.	.	.
8C#'\L	.	.	.	.	.	.	.	.	.	.	.	.	.	.	.	.	.	.	.	.
8F#'\J	.	8c#/ 8e 8a#	.	.	8e/	.	.	.	8f#/	-goś	non	.	8a#/	-muś	non	.	.	.	.	.
8c#'\L	.	(8e/L 8a#	.	.	4e/	.	.	.	8f#/L	ty	sei	.	8a#/L	ty	sei	.	.	.	.	.
8B'\	.	8g#/)	.	.	.	.	.	.	8g#/J	.	.	.	8g#/J	.	.	.	.	.	.	.
8A#'\J 8c#	.	8e/J 8f#	.	.	8e/	.	.	.	8f#/	nie	con	.	8f#/	nie	con	.	.	.	.	.
=24	=24	=24	=24	=24	=24	=24	=24	=24	=24	=24	=24	=24	=24	=24	=24	=24	=24	=24	=24	=24
8FF#'/	.	(4d#/ 4dd#	.	.	4.d#/	.	.	.	4.f#/	z na-	no-	.	4.dd#\	z na-	no-	.	2.ryy	.	.	.
8D#'\L	.	.	.	.	.	.	.	.	.	.	.	.	.	.	.	.	.	.	.	.
8F#'\J	.	8d#'/) 8f#	.	.	.	.	.	.	.	.	.	.	.	.	.	.	.	.	.	.
8B'\L	.	8d#'/ 8b	.	.	8d#/	.	.	.	8f#/	-mi?	-i?	.	8b\	-mi?	-i?	.	.	.	.	.
8D#'\	.	8r	.	.	8r	.	.	.	8r	.	.	.	8r	.	.	.	.	.	.	.
8F#'\J	.	8d#'/ 8dd#	.	.	8d#/	.	.	.	8b\	Twe	Ti	.	8dd#\	Twe	Ti	.	.	.	.	.
!!LO:PB:g=original	!	!	!	!	!	!	!	!	!	!	!	!	!	!	!	!	!	!
=25	=25	=25	=25	=25	=25	=25	=25	=25	=25	=25	=25	=25	=25	=25	=25	=25	=25	=25	=25	=25
8FF#/	.	4f#\ 4a# 4ff#	.	.	4.c#/	.	.	.	4.a#/	sios-	muo-	.	(4ff#\	sios-	muo-	.	2.ryy	.	.	.
8C#'\L	.	.	.	.	.	.	.	.	.	.	.	.	.	.	.	.	.	.	.	.
8F#'\J	.	8f#/ 8a# 8cc#	.	.	.	.	.	.	.	.	.	.	8cc#\)	.	.	.	.	.	.	.
8c#'\L	.	4f#/ 4a# 4cc#	.	.	4c#/	.	.	.	4a#/	-try	-va-	.	4cc#\	-try	-va-	.	.	.	.	.
8F#'\	.	.	.	.	.	.	.	.	.	.	.	.	.	.	.	.	.	.	.	.
.	.	(8qee#X/	.	.	.	.	.	.	.	.	.	.	.	.	.	.	.	.	.	.
8C#'\J	.	8f#/ 8a# 8dd#)	.	.	8f#/	.	.	.	8a#/	się	-no i	.	8dd#\	się	-no i	.	.	.	.	.
=26	=26	=26	=26	=26	=26	=26	=26	=26	=26	=26	=26	=26	=26	=26	=26	=26	=26	=26	=26	=26
8FF#/	.	4e#X/ 4cc#	.	.	(4e#X/	.	.	.	(4g#/	ża-	la-	.	(4cc#\	ża-	la-	.	2.ryy	.	.	.
8C#\L	.	.	.	.	.	.	.	.	.	.	.	.	.	.	.	.	.	.	.	.
8G#\J	.	8e#/ 8g#	.	.	8c#/)	.	.	.	8e#X/)	.	.	.	8g#/)	.	-i-	.	.	.	.	.
8c#\L	.	4e#/ 4g#	.	.	8c#/	.	.	.	8e#/	-lą	-i	.	8g#/	-lą	-i	.	.	.	.	.
8G#\	.	.	.	.	8r	.	.	.	8r	.	.	.	8r	.	.	.	.	.	.	.
8c#\J	.	8e#/ 8b	.	.	8c#/	.	.	.	8e#/	Przed	d'af-	.	8b\	Przed	d'af-	.	.	.	.	.
=27	=27	=27	=27	=27	=27	=27	=27	=27	=27	=27	=27	=27	=27	=27	=27	=27	=27	=27	=27	=27
8F#\L	.	8c#/L 8en 8a#	.	.	8c#/	.	.	.	8en/	kwia-	-flit-	.	8a#/	kwia-	-flit-	.	2.ryy	.	.	.
8B\	.	8g#/	.	.	8c#/	.	.	.	8e/	-tów	-te	.	8g#/	-tów	-te	.	.	.	.	.
8A#\J	.	8c#/J 8eny 8f#	.	.	8A#/ 8c#	.	.	.	8e/	klom-	so-	.	8f#/	klom-	so-	.	.	.	.	.
8G#\L	.	4f#/ 4dd#	.	.	(4f#/	.	.	.	4.f#/	-ba-	-rel-	.	(4dd#\	-ba-	-rel-	.	.	.	.	.
8A#\	.	.	.	.	.	.	.	.	.	.	.	.	.	.	.	.	.	.	.	.
8F#\J	.	8eny/ 8cc#	.	.	8e/)	.	.	.	.	.	.	.	8cc#\)	.	.	.	.	.	.	.
=28	=28	=28	=28	=28	=28	=28	=28	=28	=28	=28	=28	=28	=28	=28	=28	=28	=28	=28	=28	=28
8BB\ 8B	.	8d#/ 8b	.	.	[4.d#/	.	.	.	[4.f#/	-mi	-le	.	(4.dd#\	-mi	-le	.	2.ryy	.	.	.
8F#\L	.	8r	.	.	.	.	.	.	.	.	.	.	.	.	.	.	.	.	.	.
8d#\J	.	8f#/	.	.	.	.	.	.	.	.	.	.	.	.	.	.	.	.	.	.
8B\L	.	8d#/ 8f#	.	.	8d#/]	.	.	.	8f#/]	.	.	.	8b\)	.	.	.	.	.	.	.
8D#\	.	8r	.	.	8r	.	.	.	8r	.	.	.	8r	.	.	.	.	.	.	.
8F#\J	.	8d#/ 8f# 8b	.	.	8B/	.	.	.	8d#/	Po	Da	.	8b\	Po	Da	.	.	.	.	.
=29	=29	=29	=29	=29	=29	=29	=29	=29	=29	=29	=29	=29	=29	=29	=29	=29	=29	=29	=29	=29
!	!	!	!	!	!	!	!	!LO:DY:a	!	!	!	!LO:DY:a	!	!	!	!LO:DY:a	!	!	!	!
8FF#/	.	4c#/ 4e 4b	.	.	4.c#/	.	.	p	4.e/	wznio-	noi	p	(4b\	wznio-	noi	p	2.ryy	.	.	.
8C#\L	.	.	.	.	.	.	.	.	.	.	.	.	.	.	.	.	.	.	.	.
8F#\J	.	8c#/ 8e 8a#	.	.	.	.	.	.	.	.	.	.	8a#/)	.	.	.	.	.	.	.
8c#\L	.	(8e/L 8a#	.	.	4c#/	.	.	.	4e/	-słych	per-	.	8a#/L	-słych	per-	.	.	.	.	.
8G#\	.	8g#/)	.	.	.	.	.	.	.	.	.	.	8g#/J	.	.	.	.	.	.	.
8A#\J	.	8c#/J 8e 8f#	.	.	8c#/	.	.	.	8e/	palm	-che	.	8f#/	palm	-che	.	.	.	.	.
!!LO:LB:g=original	!	!	!	!	!	!	!	!	!	!	!	!	!	!	!	!	!	!
=30	=30	=30	=30	=30	=30	=30	=30	=30	=30	=30	=30	=30	=30	=30	=30	=30	=30	=30	=30	=30
8FF#/	.	(>4d#/ 4dd#	.	.	(4B/	.	.	.	(4d#/	le-	ma-	.	4.dd#\	le-	ma-	.	2.ryy	.	.	.
8D#\L	.	.	.	.	.	.	.	.	.	.	.	.	.	.	.	.	.	.	.	.
8F#\J	.	8d#/) 8f#	.	.	8d#/)	.	.	.	8f#/)	.	.	.	.	.	.	.	.	.	.	.
8B\L	.	8d#/ 8f#	.	.	8d#/	.	.	.	8f#/	-sie	-i	.	8b\	-sie	-i	.	.	.	.	.
8D#\	.	8r	.	.	8r	.	.	.	8r	.	.	.	8r	.	.	.	.	.	.	.
8F#\J	.	8d#/ 8b	.	.	8B/	.	.	.	8d#/	Pod	di-	.	8b\	Pod	di-	.	.	.	.	.
=31	=31	=31	=31	=31	=31	=31	=31	=31	=31	=31	=31	=31	=31	=31	=31	=31	=31	=31	=31	=31
8FF#/	.	8c#/L 8e 8b	.	.	4.c#/	.	.	.	4.e/	zło-	-let-	.	8b/L	zło-	-let-	.	2.ryy	.	.	.
8C#\L	.	8a#/	.	.	.	.	.	.	.	.	.	.	8a#/	.	.	.	.	.	.	.
8F#\J	.	8c#/J 8e 8b	.	.	.	.	.	.	.	.	.	.	8b/J	.	.	.	.	.	.	.
.	.	8qb/	.	.	.	.	.	.	.	.	.	.	.	.	.	.	.	.	.	.
8c#\L	.	(8e/L 8a#	.	.	4c#/	.	.	.	4e/	-tych	-ta	.	8a#/L	-tych	-ta	.	.	.	.	.
8B\	.	8g#/)	.	.	.	.	.	.	.	.	.	.	8g#/J	.	.	.	.	.	.	.
8A#\J	.	8c#/J 8e 8f#	.	.	8c#/	.	.	.	8e/	chmur	t'in-	.	8f#/	chmur	t'in-	.	.	.	.	.
=32	=32	=32	=32	=32	=32	=32	=32	=32	=32	=32	=32	=32	=32	=32	=32	=32	=32	=32	=32	=32
8BB/	.	4d#/ 4dd#	.	.	4.B/	.	.	.	(4d#/	fa-	-vo-	.	4.dd#\	fa-	-vo-	.	2.ryy	.	.	.
8D#\L	.	.	.	.	.	.	.	.	.	.	.	.	.	.	.	.	.	.	.	.
8F#\J	.	8d#/ 8b	.	.	.	.	.	.	8b\)	.	.	.	.	.	.	.	.	.	.	.
8B\L	.	(>8d#/L 8f#	.	.	8d#/	.	.	.	8f#/	-lą	-li?	.	8b\	-lą	-li?	.	.	.	.	.
8D#\	.	8b/)	.	.	8r	.	.	.	8r	.	.	.	8r	.	.	.	.	.	.	.
8F#\J	.	8d#/J 8dd#	.	.	8d#/	.	.	.	8b\	Gdzie	Del	.	8dd#\	Gdzie	Del	.	.	.	.	.
=33	=33	=33	=33	=33	=33	=33	=33	=33	=33	=33	=33	=33	=33	=33	=33	=33	=33	=33	=33	=33
8FF#/	.	4f#\ 4a# 4ff#	.	.	(4c#/	.	.	.	4.a#/	wie-	tem-	.	(4ff#\	wie-	tem-	.	2.ryy	.	.	.
8C#\L	.	.	.	.	.	.	.	.	.	.	.	.	.	.	.	.	.	.	.	.
8F#\J	.	8f#/ 8a# 8cc#	.	.	8f#/)	.	.	.	.	.	.	.	8cc#\)	.	.	.	.	.	.	.
8c#\L	.	8f#/L 8a# 8cc#	.	.	8f#/	.	.	.	8a#/	-trzyk	-pio	.	8cc#\L	-trzyk	-pio	.	.	.	.	.
8A#\	.	8ee#X/	.	.	8r	.	.	.	8r	.	.	.	8ee#X\J	.	.	.	.	.	.	.
8F#\J	.	8f#/J 8a# 8dd#	.	.	8f#/	.	.	.	8a#/	do-	le an-	.	8dd#\	do-	le an-	.	.	.	.	.
=34	=34	=34	=34	=34	=34	=34	=34	=34	=34	=34	=34	=34	=34	=34	=34	=34	=34	=34	=34	=34
8C#/	.	8e#X/ 8cc#	.	.	4.e#X/	.	.	.	4.g#/	-nie-	-cel-	.	4.cc#\	-nie-	-cel-	.	2.ryy	.	.	.
8G#\L	.	8r	.	.	.	.	.	.	.	.	.	.	.	.	.	.	.	.	.	.
8B\J	.	8e#/ 8g#	.	.	.	.	.	.	.	.	.	.	.	.	.	.	.	.	.	.
8c#\L	.	8e#/ 8g#	.	.	8e#/	.	.	.	8g#/	-sie	-le	.	8g#/	-sie	-le	.	.	.	.	.
8B\	.	8r	.	.	8r	.	.	.	8r	.	.	.	8r	.	.	.	.	.	.	.
8G#\J	.	8e#/ 8b	.	.	8e#/	.	.	.	8g#/	Brzmi	in	.	8b\	Brzmi	in	.	.	.	.	.
!!LO:LB:g=original	!	!	!	!	!	!	!	!	!	!	!	!	!	!	!	!	!	!
=35	=35	=35	=35	=35	=35	=35	=35	=35	=35	=35	=35	=35	=35	=35	=35	=35	=35	=35	=35	=35
8F#\	.	(8en/L 8a#	.	.	8en/	.	.	.	8f#/	e-	gra-	.	8a#/	e-	gra-	.	2.ryy	.	.	.
8B\L	.	8g#/)	.	.	8e/	.	.	.	8g#/	-cho	-ta	.	8g#/	-cho	-ta	.	.	.	.	.
8A#\J	.	8e/J 8f#	.	.	8e/	.	.	.	8f#/	Ne-	scon-	.	8f#/	Ne-	scon-	.	.	.	.	.
8G#\L	.	4f#/ 4dd#	.	.	(4f#/	.	.	.	4.f#/	-a-	-so-	.	(4dd#\	-a-	-so-	.	.	.	.	.
8A#\	.	.	.	.	.	.	.	.	.	.	.	.	.	.	.	.	.	.	.	.
8F#\J	.	8e/ 8cc#	.	.	8e/)	.	.	.	.	.	.	.	8cc#\)	.	.	.	.	.	.	.
=36	=36	=36	=36	=36	=36	=36	=36	=36	=36	=36	=36	=36	=36	=36	=36	=36	=36	=36	=36	=36
8BB/	.	8d#/ 8b	.	.	[4.d#/	.	.	.	[4.f#/	-lo!	-li!	.	[4.b\	-lo!	-li!	.	2.ryy	.	.	.
8F#\L	.	8r	.	.	.	.	.	.	.	.	.	.	.	.	.	.	.	.	.	.
8B\J	.	8d#/ 8f# 8b	.	.	.	.	.	.	.	.	.	.	.	.	.	.	.	.	.	.
8An\L	.	8d#/ 8f# 8b	.	.	8d#/]	.	.	.	8f#/]	.	.	.	8b\]	.	.	.	.	.	.	.
8F#\	.	8r	.	.	8r	.	.	.	8r	.	.	.	8r	.	.	.	.	.	.	.
8B\J	.	8e/ 8gn 8b	.	.	8e/	.	.	.	8gn/	Co-	Que-	.	8b\	Co-	Que-	.	.	.	.	.
*kcancel	*	*kcancel	*	*	*kcancel	*	*	*	*kcancel	*	*	*	*kcancel	*	*	*	*kcancel	*	*	*
=37||	=37||	=37||	=37||	=37||	=37||	=37||	=37||	=37||	=37||	=37||	=37||	=37||	=37||	=37||	=37||	=37||	=37||	=37||	=37||	=37||
*k[f#]	*	*k[f#]	*	*	*k[f#]	*	*	*	*k[f#]	*	*	*	*k[f#]	*	*	*	*k[f#]	*	*	*
8EE/L	.	(>4e/ 4g 4b	.	.	4.e/	.	.	.	(4g/	-dzien-	-st'og-	.	(4b\	-dzien-	-st'og-	.	2.ryy	.	.	.
8BB/	.	.	.	.	.	.	.	.	.	.	.	.	.	.	.	.	.	.	.	.
8E/J	.	8a/) 8cc	.	.	.	.	.	.	8a/)	.	.	.	8cc\)	.	.	.	.	.	.	.
8EE\L	.	4a/ 4cc	.	.	4e/	.	.	.	4a/	-ną	-gi	.	4cc\	-ną	-gi	.	.	.	.	.
(8E\	.	.	.	.	.	.	.	.	.	.	.	.	.	.	.	.	.	.	.	.
8G\J)	.	8b\ 8dd	.	.	8e/	.	.	.	8b\	o-	l'u-	.	8dd\	o-	l'u-	.	.	.	.	.
=38	=38	=38	=38	=38	=38	=38	=38	=38	=38	=38	=38	=38	=38	=38	=38	=38	=38	=38	=38	=38
8EE\L	.	(4b\ 4dd	.	.	4.e/	.	.	.	(4b\	-fia-	-sa-	.	(4dd\	-fia-	-sa-	.	2.ryy	.	.	.
(8E\	.	.	.	.	.	.	.	.	.	.	.	.	.	.	.	.	.	.	.	.
8G\J)	.	8cc\) 8ee	.	.	.	.	.	.	8cc\)	.	.	.	8ee\)	.	.	.	.	.	.	.
8E\L	.	(4cc\ 4ee	.	.	4e/	.	.	.	4cc\	-rą	-ta	.	4ee\	-rą	-ta	.	.	.	.	.
(8G\	.	.	.	.	.	.	.	.	.	.	.	.	.	.	.	.	.	.	.	.
8B\J)	.	8b\) 8dd	.	.	8e/	.	.	.	8b\	u	of-	.	8dd\	u	of-	.	.	.	.	.
=39	=39	=39	=39	=39	=39	=39	=39	=39	=39	=39	=39	=39	=39	=39	=39	=39	=39	=39	=39	=39
8EE\L	.	((4b\ 4dd	.	.	4.e/	.	.	.	(4b\	świę-	-fer-	.	(4dd\	świę-	-fer-	.	2.ryy	.	.	.
(8E\	.	.	.	.	.	.	.	.	.	.	.	.	.	.	.	.	.	.	.	.
8c\J)	.	8a\)) 8cc	.	.	.	.	.	.	8a/)	.	.	.	8cc\)	.	.	.	.	.	.	.
8E\L	.	8a/L 8cc	.	.	4e/	.	.	.	8a/L	-tych	-ta	.	8cc\L	-tych	-ta	.	.	.	.	.
(8G\	.	8g/ 8b	.	.	.	.	.	.	8g/J	.	.	.	8b\J	.	.	.	.	.	.	.
8e\J)	.	8f#/J 8a#X	.	.	8e/	.	.	.	8f#/	wy-	sul	.	8a#X/	wy-	sul	.	.	.	.	.
!!LO:PB:g=original	!	!	!	!	!	!	!	!	!	!	!	!	!	!	!	!	!	!
=40	=40	=40	=40	=40	=40	=40	=40	=40	=40	=40	=40	=40	=40	=40	=40	=40	=40	=40	=40	=40
8E\L	.	4g/ 4b	.	.	4.e/	.	.	.	4.g/	-brze-	l'a-	.	4.b\	-brze-	l'a-	.	2.ryy	.	.	.
(8B\	.	.	.	.	.	.	.	.	.	.	.	.	.	.	.	.	.	.	.	.
8e\J)	.	8g/	.	.	.	.	.	.	.	.	.	.	.	.	.	.	.	.	.	.
8E\L	.	8g/ 8b	.	.	8e/	.	.	.	8e/	-ży	-ra	.	8g/	-ży	-ra	.	.	.	.	.
(8G\	.	8r	.	.	8r	.	.	.	8r	.	.	.	8r	.	.	.	.	.	.	.
8B\J)	.	8g\ 8ee 8gg	.	.	8e/	.	.	.	8b\	Raz	da	.	8gg\	Raz	da	.	.	.	.	.
=41	=41	=41	=41	=41	=41	=41	=41	=41	=41	=41	=41	=41	=41	=41	=41	=41	=41	=41	=41	=41
8FF#/ 8D	.	(4g^<\ (4dd 4ff#	.	.	4.d/	.	.	.	(4dd\	pierw-	noi	.	(4ff#\	pierw-	noi	.	2.ryy	.	.	.
(8A\L	.	.	.	.	.	.	.	.	.	.	.	.	.	.	.	.	.	.	.	.
8d\J)	.	8cc\)) 8ee	.	.	.	.	.	.	8cc\)	.	.	.	8ee\)	.	.	.	.	.	.	.
8D\L	.	((4b\ 4dd	.	.	4d/	.	.	.	4b\	-szy	fu am-	.	4dd\	-szy	fu am-	.	.	.	.	.
(8F#\	.	.	.	.	.	.	.	.	.	.	.	.	.	.	.	.	.	.	.	.
8A\J)	.	8a/)) 8cc	.	.	8d/	.	.	.	8a/	dłoń	-mas-	.	8cc\	dłoń	-mas-	.	.	.	.	.
=42	=42	=42	=42	=42	=42	=42	=42	=42	=42	=42	=42	=42	=42	=42	=42	=42	=42	=42	=42	=42
8GG/	.	((4g/ 4b	.	.	4.d/	.	.	.	(4g/	na-	-sa-	.	(4b\	na-	-sa-	.	2.ryy	.	.	.
(8D\L	.	.	.	.	.	.	.	.	.	.	.	.	.	.	.	.	.	.	.	.
8G\J)	.	8a/)) 8cc	.	.	.	.	.	.	8a/)	.	.	.	8cc\)	.	.	.	.	.	.	.
8GG\L	.	8b\ 8dd	.	.	8d/	.	.	.	8b\	-sza	-ta,	.	8dd\	-sza	-ta,	.	.	.	.	.
(8D\	.	8r	.	.	8r	.	.	.	8r	.	.	.	8r	.	.	.	.	.	.	.
8G\J)	.	8ee\ 8gg	.	.	8d/	.	.	.	8ee\	zło-	ma	.	8gg\	zło-	ma	.	.	.	.	.
=43	=43	=43	=43	=43	=43	=43	=43	=43	=43	=43	=43	=43	=43	=43	=43	=43	=43	=43	=43	=43
8DD\L	.	((4dd\ 4ff#	.	.	4.f#/	.	.	.	(4dd\	-ży-	sen-	.	(4ff#\	-ży-	sen-	.	2.ryy	.	.	.
(8F#\	.	.	.	.	.	.	.	.	.	.	.	.	.	.	.	.	.	.	.	.
8A\J)	.	8cc\)) 8ee	.	.	.	.	.	.	8cc\)	.	.	.	8ee\)	.	.	.	.	.	.	.
.	.	8qdd/ 8qff#	.	.	.	.	.	.	.	.	.	.	.	.	.	.	.	.	.	.
8D\L	.	((8cc\L 8ee	.	.	4f#/	.	.	.	8cc\L	-ła	-za il	.	8ee\L	-ła	-za il	.	.	.	.	.
8F#\	.	8b\)) 8dd	.	.	.	.	.	.	8b\J	.	.	.	8dd\J	.	.	.	.	.	.	.
8A\J	.	8a\J 8cc	.	.	8f#/	.	.	.	8a/	o-	tuo a-	.	8cc\	o-	tuo a-	.	.	.	.	.
=44	=44	=44	=44	=44	=44	=44	=44	=44	=44	=44	=44	=44	=44	=44	=44	=44	=44	=44	=44	=44
*^	*	*	*	*	*	*	*	*	*	*	*	*	*	*	*	*	*	*	*	*
8GG/	4.ryy	.	4g/ 4b	.	<	4.g/	.	.	.	(4g/	-fia-	-ju-	.	(4b\	-fia-	-ju-	.	2.ryy	.	.	.
(8D\L	.	.	.	.	.	.	.	.	.	.	.	.	.	.	.	.	.	.	.	.	.
8G\J)	.	.	8a/ 8cc	.	[	.	.	.	.	8a/)	.	.	.	8cc\)	.	.	.	.	.	.	.
8BB/L	4.BB\	.	(8b\L 8dd	.	.	8g/	.	.	.	(8b\L	-ry	-to.	.	(8dd\L	-ry	-to.	.	.	.	.	.
8D/	.	.	8dd\ 8ff#	.	>	8r	.	.	.	8dd\J)	.	.	.	8ff#\J)	.	.	.	.	.	.	.
8G/J	.	.	8cc\J) 8ee	.	]	8e/	.	.	.	8cc\	Czyż	Te	.	8ee\	Czyż	Te	.	.	.	.	.
!!LO:LB:g=original	!	!	!	!	!	!	!	!	!	!	!	!	!	!	!	!	!	!	!
=45	=45	=45	=45	=45	=45	=45	=45	=45	=45	=45	=45	=45	=45	=45	=45	=45	=45	=45	=45	=45	=45
!LO:N:vis=2	!	!	!	!	!	!	!	!	!	!	!	!	!	!	!	!	!	!	!	!	!
(8C/L	2.C\	.	(4b\ 4dd	.	.	4.e/	.	.	.	(4b\	ta-	mia-	.	(4dd\	ta-	mia-	.	2.ryy	.	.	.
8E/	.	.	.	.	.	.	.	.	.	.	.	.	.	.	.	.	.	.	.	.	.
8A/J	.	.	8a/ 8cc	.	.	.	.	.	.	8a/)	.	.	.	8cc\)	.	.	.	.	.	.	.
8c/L	.	.	4e/ 4g	.	.	4e/	.	.	.	4e/	-ka	-mo	.	4g/	-ka	-mo	.	.	.	.	.
8A/	.	.	.	.	.	.	.	.	.	.	.	.	.	.	.	.	.	.	.	.	.
8C/J)	.	.	8f#/) 8a	.	.	8e/	.	.	.	8f#/	mo-	che ap-	.	8a/	mo-	che ap-	.	.	.	.	.
*v	*v	*	*	*	*	*	*	*	*	*	*	*	*	*	*	*	*	*	*	*	*
=46	=46	=46	=46	=46	=46	=46	=46	=46	=46	=46	=46	=46	=46	=46	=46	=46	=46	=46	=46	=46
*	*	*^	*	*	*	*	*	*	*	*	*	*	*	*	*	*	*	*	*	*
8GG/L	.	8d/ 8g 8b	4.ryy	.	.	4.d/	.	.	.	4.g/	-dli-	-pa-	.	4.b\	-dli-	-pa-	.	2.ryy	.	.	.
(8D/	.	8r	.	.	.	.	.	.	.	.	.	.	.	.	.	.	.	.	.	.	.
8G/J)	.	8B/ 8g 8b	.	.	.	.	.	.	.	.	.	.	.	.	.	.	.	.	.	.	.
(8GG\L	.	8g/ 8b	8d\L	.	.	4d/	.	.	.	4g/	-twa	-ra	.	4b\	-twa	-ra	.	.	.	.	.
8G\)	.	8r	8B\J	.	.	.	.	.	.	.	.	.	.	.	.	.	.	.	.	.	.
!	!	!	!	!	!	!	!	!	!LO:DY:a	!	!	!	!LO:DY:a	!	!	!	!LO:DY:a	!	!	!	!
8E\J	.	8g/ 8b	8r	.	pp	8e/	.	.	pp	8e/	do	men	pp	8b\	do	men	pp	.	.	.	.
*	*	*v	*v	*	*	*	*	*	*	*	*	*	*	*	*	*	*	*	*	*	*
=47	=47	=47	=47	=47	=47	=47	=47	=47	=47	=47	=47	=47	=47	=47	=47	=47	=47	=47	=47	=47
*^	*	*	*	*	*	*	*	*	*	*	*	*	*	*	*	*	*	*	*	*
(8AA/L	4.AA\	.	(4b\ 4dd	.	.	(4d^/	.	.	.	4.e/	bo-	ca-	.	(4b\	bo-	ca-	.	2.ryy	.	.	.
8E/	.	.	.	.	.	.	.	.	.	.	.	.	.	.	.	.	.	.	.	.	.
8A/J	.	.	8a/ 8cc	.	.	8c/)	.	.	.	.	.	.	.	8a/)	.	.	.	.	.	.	.
8c/L	4.ryy	2	4e/ 4g	.	.	4G/	.	.	.	4e/	-gów	-sto il	.	4e/	-gów	-sto il	.	.	.	.	.
8A/	.	1	.	.	.	.	.	.	.	.	.	.	.	.	.	.	.	.	.	.	.
8E/J)	.	.	8f#/) 8a	.	.	8A/	.	.	.	8e/	do-	tri-	.	8f#/	do-	tri-	.	.	.	.	.
*v	*v	*	*	*	*	*	*	*	*	*	*	*	*	*	*	*	*	*	*	*	*
=48	=48	=48	=48	=48	=48	=48	=48	=48	=48	=48	=48	=48	=48	=48	=48	=48	=48	=48	=48	=48
8EE/L	.	(4.g/ 4.b	.	.	4.B/	.	.	.	4.e/	-bie-	-bu-	.	4.g/	-bie-	-bu-	.	2.ryy	.	.	.
(8BB/	.	.	.	.	.	.	.	.	.	.	.	.	.	.	.	.	.	.	.	.
8E/J)	.	.	.	.	.	.	.	.	.	.	.	.	.	.	.	.	.	.	.	.
8EE/L	.	8g/) 8b	.	.	8e/	.	.	.	8e/	-ży?	-to.	.	8g/	-ży?	-to.	.	.	.	.	.
(8BB/	.	8r	.	.	8r	.	.	.	8r	.	.	.	8r	.	.	.	.	.	.	.
8E/J)	.	8e/ 8g	.	.	8e/	.	.	.	8g/	Czy	Sa-	.	8r	.	.	.	.	.	.	.
=49	=49	=49	=49	=49	=49	=49	=49	=49	=49	=49	=49	=49	=49	=49	=49	=49	=49	=49	=49	=49
8EE/L	.	([>4.g/ [4.b	.	.	[4.g/	.	.	.	[4.b\	bę-	-ra	.	2.r	.	.	.	2.ryy	.	.	.
(8BB/	.	.	.	.	.	.	.	.	.	.	.	.	.	.	.	.	.	.	.	.
8E/J)	.	.	.	.	.	.	.	.	.	.	.	.	.	.	.	.	.	.	.	.
8EE/L	.	4g/] 4b]	.	.	4g/]	.	.	.	4b\]	.	.	.	.	.	.	.	.	.	.	.
(8BB/	.	.	.	.	.	.	.	.	.	.	.	.	.	.	.	.	.	.	.	.
8E/J)	.	8e/) 8g	.	.	8e/	.	.	.	8g/	-dzie	gra	.	.	.	.	.	.	.	.	.
!!LO:LB:g=original	!	!	!	!	!	!	!	!	!	!	!	!	!	!	!	!	!	!	!	!
=50	=50	=50	=50	=50	=50	=50	=50	=50	=50	=50	=50	=50	=50	=50	=50	=50	=50	=50	=50	=50
8EE/L	.	((4g/ 4b	.	.	[4.g/	.	.	.	[4.b\	bo-	di-	.	2.r	.	.	.	2.ryy	.	.	.
(8BB/	.	.	.	.	.	.	.	.	.	.	.	.	.	.	.	.	.	.	.	.
8E/J)	.	8e/)) 8g	.	.	.	.	.	.	.	.	.	.	.	.	.	.	.	.	.	.
8EE/L	.	8e/ 8g	.	.	4g/]	.	.	.	4b\]	.	.	.	.	.	.	.	.	.	.	.
(8BB/	.	8r	.	.	.	.	.	.	.	.	.	.	.	.	.	.	.	.	.	.
8E/J)	.	8g/ 8b	.	.	8e/	.	.	.	8g/	-gom	-to ai	.	.	.	.	.	.	.	.	.
=51	=51	=51	=51	=51	=51	=51	=51	=51	=51	=51	=51	=51	=51	=51	=51	=51	=51	=51	=51	=51
8EE/L	.	[4.g/ [4.b	.	.	(4g/	.	.	.	(4b\	mi-	nu-	.	4r	.	.	.	2.ryy	.	.	.
8BB/	.	.	.	.	.	.	.	.	.	.	.	.	.	.	.	.	.	.	.	.
8E/J	.	.	.	.	8e/)	.	.	.	8g/)	.	.	.	8r	.	.	.	.	.	.	.
8EE/L	.	8g/] 8b]	.	.	8g/	.	.	.	8b\	-ła?	-mi?	.	4r	.	.	.	.	.	.	.
8BB/	.	8r	.	.	8r	.	.	.	8r	.	.	.	.	.	.	.	.	.	.	.
!	!	!	!	!	!	!	!	!LO:DY:a	!	!	!	!LO:DY:a	!	!	!	!LO:DY:a	!	!	!	!
8G/J	.	8g/ 8b	.	.	8e/	.	.	p	8g/	Ne-	Ne-	p	8b\	Ne-	Ne-	p	.	.	.	.
=52||	=52||	=52||	=52||	=52||	=52||	=52||	=52||	=52||	=52||	=52||	=52||	=52||	=52||	=52||	=52||	=52||	=52||	=52||	=52||	=52||
*k[f#c#g#d#a#]	*	*k[f#c#g#d#a#]	*	*	*k[f#c#g#d#a#]	*	*	*	*k[f#c#g#d#a#]	*	*	*	*k[f#c#g#d#a#]	*	*	*	*k[f#c#g#d#a#]	*	*	*
8FF#/	.	((4gn^/ 4b	.	.	4.e/	.	.	.	(4gn/	-a-	-a-	.	(4b\	-a-	-a-	.	2.ryy	.	.	.
!LO:TX:b:i:t=sempre stacc.	!	!	!	!	!	!	!	!	!	!	!	!	!	!	!	!	!	!	!	!
8C#'\L	.	.	.	.	.	.	.	.	.	.	.	.	.	.	.	.	.	.	.	.
8F#'\J	.	8f#/)) 8a#	.	.	.	.	.	.	8f#/)	.	.	.	8a#X/)	.	.	.	.	.	.	.
8c#'\L	.	8f#'/L 8a#	.	.	8e/	.	.	.	8f#/	-lo	-la,	.	8a#/L	-lo	-la,	.	.	.	.	.
8B'\	.	8e#X'/ 8g#X	.	.	8r	.	.	.	8r	.	.	.	8g#/J	.	.	.	.	.	.	.
8A#'\J	.	8en'/J 8f#	.	.	8e/	.	.	.	8f#/	Ne-	Ne-	.	8f#/	Ne-	Ne-	.	.	.	.	.
=53	=53	=53	=53	=53	=53	=53	=53	=53	=53	=53	=53	=53	=53	=53	=53	=53	=53	=53	=53	=53
*	*	*^	*	*	*	*	*	*	*	*	*	*	*	*	*	*	*	*	*	*
8FF#/	.	(4.dd#/	(4d#\	.	.	4d#/	.	.	.	4f#/	-a-	-a-	.	[4.dd#\	-a-	-a-	.	2.ryy	.	.	.
8D#'\L	.	.	.	.	.	.	.	.	.	.	.	.	.	.	.	.	.	.	.	.	.
8F#'\J	.	.	8b\)	.	.	8d#/	.	.	.	8f#/	-lO!	-la!	.	.	.	.	.	.	.	.	.
8B'\L	.	8dd#/)	8f#\	.	.	8d#/	.	.	.	8f#/	ach	ah	.	4dd#\]	.	.	.	.	.	.	.
8D#'\	.	8r	4ryy	.	.	8r	.	.	.	8r	.	.	.	.	.	.	.	.	.	.	.
8F#'\J	.	8d#/ 8b	.	.	.	8d#/	.	.	.	8f#/	Dla-	per-	.	8b\	-lo,	-la!	.	.	.	.	.
=54	=54	=54	=54	=54	=54	=54	=54	=54	=54	=54	=54	=54	=54	=54	=54	=54	=54	=54	=54	=54	=54
8FF#/	.	(>8c#/L 8e 8b	4.ryy	.	.	4e/	.	.	.	4f#/	-cze-	-che	.	4b\	cze-	che	.	2.ryy	.	.	.
8C#'\L	.	8a#/)	.	.	.	.	.	.	.	.	.	.	.	.	.	.	.	.	.	.	.
8F#'\J	.	8e/J 8b	.	.	.	8e/	.	.	.	8f#/	-goś	non	.	8a#/	-muś	non	.	.	.	.	.
8c#'\L	.	(>8e/L 8a#	4ryy	.	.	4e/	.	.	.	8f#/L	to	sei	.	8a#/L	to	sei	.	.	.	.	.
8B'\	.	8g#/)	.	.	.	.	.	.	.	8g#/J	.	.	.	8g#/J	.	.	.	.	.	.	.
8A#'\J	.	8f#/J	8e\	.	.	8e/	.	.	.	8f#/	nie	con	.	8f#/	nie	con	.	.	.	.	.
*	*	*v	*v	*	*	*	*	*	*	*	*	*	*	*	*	*	*	*	*	*	*
!!LO:PB:g=original	!	!	!	!	!	!	!	!	!	!	!	!	!	!	!	!	!	!	!	!
=55	=55	=55	=55	=55	=55	=55	=55	=55	=55	=55	=55	=55	=55	=55	=55	=55	=55	=55	=55	=55
8FF#/	.	4d#/ 4dd#	.	.	4.d#/	.	.	.	4.f#/	z na-	no-	.	4.dd#\	z na-	no-	.	2.ryy	.	.	.
8D#\L	.	.	.	.	.	.	.	.	.	.	.	.	.	.	.	.	.	.	.	.
8F#\J	.	8d#/ 8f#	.	.	.	.	.	.	.	.	.	.	.	.	.	.	.	.	.	.
8B'\L	.	8d#/ 8b	.	.	8d#/	.	.	.	8f#/	-mi?	-i?	.	8b\	-mi?	-i?	.	.	.	.	.
8D#'\	.	8r	.	.	8r	.	.	.	8r	.	.	.	8r	.	.	.	.	.	.	.
8F#'\J	.	8f#/ 8b 8dd#	.	.	8d#/	.	.	.	8b\	Twe	Ti	.	8dd#\	Twe	Ti	.	.	.	.	.
=56	=56	=56	=56	=56	=56	=56	=56	=56	=56	=56	=56	=56	=56	=56	=56	=56	=56	=56	=56	=56
8FF#/	.	4f#\ 4a# 4ff#	.	.	4.c#/	.	.	.	4.a#/	sio-	muo-	.	(4ff#\	sio-	muo-	.	2.ryy	.	.	.
8F#\L	.	.	.	.	.	.	.	.	.	.	.	.	.	.	.	.	.	.	.	.
8A#\J	.	8f#/ 8a# 8cc#	.	.	.	.	.	.	.	.	.	.	8cc#\)	.	.	.	.	.	.	.
8c#\L	.	8f#/L 8a# 8cc#	.	.	4c#/	.	.	.	4a#/	-stry	-va	.	4cc#\	-stry	-va-	.	.	.	.	.
8A#'\	.	8ee#X/	.	.	.	.	.	.	.	.	.	.	.	.	.	.	.	.	.	.
8F#\J	.	8f#/J 8a# 8dd#	.	.	8f#/	.	.	.	8a#/	się	no i	.	8dd#\	się	-no i	.	.	.	.	.
=57	=57	=57	=57	=57	=57	=57	=57	=57	=57	=57	=57	=57	=57	=57	=57	=57	=57	=57	=57	=57
8C#/	.	8e#X/ 8cc#	.	.	(4e#X/	.	.	.	(4g#/	ża-	la-	.	(4cc#\	ża-	la-	.	2.ryy	.	.	.
8G#\L	.	8r	.	.	.	.	.	.	.	.	.	.	.	.	.	.	.	.	.	.
8A#\J	.	8e#/ 8g#	.	.	8c#/)	.	.	.	8e#X/)	.	.	.	8g#/)	.	.	.	.	.	.	.
8B\L	.	8e#/ 8g#	.	.	8c#/	.	.	.	8e#/	-lą	-i	.	8g#/	-lą	-i	.	.	.	.	.
8G#\	.	8r	.	.	8r	.	.	.	8r	.	.	.	8r	.	.	.	.	.	.	.
8c#\J	.	8e#/ 8b	.	.	8c#/	.	.	.	8e#/	Przed	d'af-	.	8b\	Przed	d'af-	.	.	.	.	.
=58	=58	=58	=58	=58	=58	=58	=58	=58	=58	=58	=58	=58	=58	=58	=58	=58	=58	=58	=58	=58
8FF#/	.	(8en/L 8a#X	.	.	8c#/	.	.	.	8en/	kwia-	-flit-	.	8a#/	kwia-	-flit-	.	2.ryy	.	.	.
8B\L	.	8g#/)	.	.	8c#/	.	.	.	8e/	-tów	-te	.	8g#/	-tów	-te	.	.	.	.	.
8A#\J	.	8e/J 8f#	.	.	8A#/ 8c#	.	.	.	8e/	klom-	so-	.	8f#/	klom-	so-	.	.	.	.	.
8G#\L	.	4f#/ 4dd#	.	.	(4f#/	.	.	.	4.f#/	-ba-	-rel-	.	(4dd#\	-ba-	-rel-	.	.	.	.	.
8A#\	.	.	.	.	.	.	.	.	.	.	.	.	.	.	.	.	.	.	.	.
8F#\J	.	8e/ 8cc#	.	.	8e/)	.	.	.	.	.	.	.	8cc#\)	.	.	.	.	.	.	.
=59	=59	=59	=59	=59	=59	=59	=59	=59	=59	=59	=59	=59	=59	=59	=59	=59	=59	=59	=59	=59
8BB\L	.	8d#/ 8b	.	.	4d#/	.	.	.	4f#/	-mi.	-le!	.	4b\	-mi.	-le!	.	2.ryy	.	.	.
(8F#\	.	8r	.	.	.	.	.	.	.	.	.	.	.	.	.	.	.	.	.	.
!	!	!LO:TUP:a:problem:klamra łukowa	!	!	!	!	!	!	!	!	!	!	!	!	!	!	!	!	!	!
!	!	!LO:TX:a:i:t=leggieriss.	!	!	!	!	!	!	!	!	!	!	!	!	!	!	!	!	!	!
8B\J)	.	24e^/LL	.	.	8r	.	.	.	8r	.	.	.	8r	.	.	.	.	.	.	.
.	.	24d#/	.	.	.	.	.	.	.	.	.	.	.	.	.	.	.	.	.	.
.	.	24c##X/JJ	.	.	.	.	.	.	.	.	.	.	.	.	.	.	.	.	.	.
8BB\L	.	8d#/	.	.	4r	.	.	.	4r	.	.	.	4r	.	.	.	.	.	.	.
(8F#\	.	8r	.	.	.	.	.	.	.	.	.	.	.	.	.	.	.	.	.	.
!	!	!LO:TUP:a:problem:klamra łukowa	!	!	!	!	!	!	!	!	!	!	!	!	!	!	!	!	!	!
8B\J)	.	24e^/LL	.	.	8r	.	.	.	8r	.	.	.	8r	.	.	.	.	.	.	.
.	.	24d#/	.	.	.	.	.	.	.	.	.	.	.	.	.	.	.	.	.	.
.	.	24c##/JJ	.	.	.	.	.	.	.	.	.	.	.	.	.	.	.	.	.	.
!!LO:LB:g=original	!	!	!	!	!	!	!	!	!	!	!	!	!	!	!	!	!	!	!	!
=60	=60	=60	=60	=60	=60	=60	=60	=60	=60	=60	=60	=60	=60	=60	=60	=60	=60	=60	=60	=60
!	!	!	!	!	!	!	!	!	!	!	!	!	!	!	!	!	!LO:TX:a:t=Neala. wracając ze świątyni	!	!	!
!	!	!	!	!	!	!	!	!	!	!	!	!	!	!	!	!	!LO:TX:a:i:t=Neala. ritornando dal tempio	!	!	!
8BB\L	.	8d#/	.	.	2.r	.	.	.	2.r	.	.	.	2.r	.	.	.	8r	.	.	.
(8F#\	.	8r	.	.	.	.	.	.	.	.	.	.	.	.	.	.	8r	.	.	.
8B\J)	.	8d#/ 8f# 8b	.	.	.	.	.	.	.	.	.	.	.	.	.	.	8dd#\	O	Di-	.
8BB\L	.	8d#/ 8f# 8dd#	.	.	.	.	.	.	.	.	.	.	.	.	.	.	[4dd#\	dro-	-let-	.
(8F#\	.	8r	.	.	.	.	.	.	.	.	.	.	.	.	.	.	.	.	.	.
8B\J)	.	8d#/ 8f# 8b	.	.	.	.	.	.	.	.	.	.	.	.	.	.	16dd#\]	.	.	.
.	.	.	.	.	.	.	.	.	.	.	.	.	.	.	.	.	16dd#\	-gie	-te	.
=61	=61	=61	=61	=61	=61	=61	=61	=61	=61	=61	=61	=61	=61	=61	=61	=61	=61	=61	=61	=61
8AA#\L	.	8d#/ 8f##X 8dd#	.	.	2.r	.	.	.	2.r	.	.	.	2.r	.	.	.	4.dd#\	sio-	suo-	.
(8D#\	.	8r	.	.	.	.	.	.	.	.	.	.	.	.	.	.	.	.	.	.
!	!	!LO:TUP:a:problem:klamra łukowa	!	!	!	!	!	!	!	!	!	!	!	!	!	!	!	!	!	!
8A#\J)	.	24e^/LL	.	.	.	.	.	.	.	.	.	.	.	.	.	.	.	.	.	.
.	.	24d#/	.	.	.	.	.	.	.	.	.	.	.	.	.	.	.	.	.	.
.	.	24c##X/JJ	.	.	.	.	.	.	.	.	.	.	.	.	.	.	.	.	.	.
8AA#\L	.	8d#/	.	.	.	.	.	.	.	.	.	.	.	.	.	.	4cc#\	-stry!	-re!	.
(8D#\	.	8r	.	.	.	.	.	.	.	.	.	.	.	.	.	.	.	.	.	.
!	!	!LO:TUP:a:problem:klamra łukowa	!	!	!	!	!	!	!	!	!	!	!	!	!	!	!	!	!	!
8A#\J)	.	24e^/LL	.	.	.	.	.	.	.	.	.	.	.	.	.	.	8r	.	.	.
.	.	24d#/	.	.	.	.	.	.	.	.	.	.	.	.	.	.	.	.	.	.
.	.	24c##/JJ	.	.	.	.	.	.	.	.	.	.	.	.	.	.	.	.	.	.
=62	=62	=62	=62	=62	=62	=62	=62	=62	=62	=62	=62	=62	=62	=62	=62	=62	=62	=62	=62	=62
!	!	!	!	!	!	!	!	!	!	!	!	!	!LO:TX:a:t=SOLO	!	!	!	!	!	!	!
8AA#\L	.	8d#/	.	.	4.d#/	.	.	.	4.f##X/	Dziś	Og-	.	4.cc#\	Dziś	Og-	.	2.r	.	.	.
(8D#\	.	8r	.	.	.	.	.	.	.	.	.	.	.	.	.	.	.	.	.	.
8A#\J)	.	8d#/ 8f##X 8cc#	.	.	.	.	.	.	.	.	.	.	.	.	.	.	.	.	.	.
8AA#\L	.	8d#/ 8f## 8dd#	.	.	4d#/	.	.	.	4f##/	twe	-gi i	.	4cc#\	twe	-gi i	.	.	.	.	.
(8D#\	.	8r	.	.	.	.	.	.	.	.	.	.	.	.	.	.	.	.	.	.
8A#\J)	.	8d#/ 8f## 8cc#	.	.	8d#/	.	.	.	8f##/	ma-	tuoi	.	8cc#\	ma-	tuoi	.	.	.	.	.
=63	=63	=63	=63	=63	=63	=63	=63	=63	=63	=63	=63	=63	=63	=63	=63	=63	=63	=63	=63	=63
8GG#\L	.	8d#/ 8g# 8b	.	.	4d#/	.	.	.	[4.g#/	-rze-	so-	.	[4.b\	-rze-	so-	.	2.r	.	.	.
(8D#\	.	8r	.	.	.	.	.	.	.	.	.	.	.	.	.	.	.	.	.	.
!	!	!LO:TUP:a:problem:klamra łukowa	!	!	!	!	!	!	!	!	!	!	!	!	!	!	!	!	!	!
8G#\J)	.	24e^/LL	.	.	8e/	.	.	.	.	.	.	.	.	.	.	.	.	.	.	.
.	.	24d#/	.	.	.	.	.	.	.	.	.	.	.	.	.	.	.	.	.	.
.	.	24c##X/JJ	.	.	.	.	.	.	.	.	.	.	.	.	.	.	.	.	.	.
8GG#\L	.	8d#/	.	.	4d#/	.	.	.	4g#/]	.	.	.	4b\]	.	.	.	.	.	.	.
(8D#\	.	8r	.	.	.	.	.	.	.	.	.	.	.	.	.	.	.	.	.	.
!	!	!LO:TUP:a:problem:klamra łukowa	!	!	!	!	!	!	!	!	!	!	!	!	!	!	!	!	!	!
8G#\J)	.	24e^/LL	.	.	8e/	.	.	.	8g#/	-nia	-gni	.	8b\	-nia	-gni	.	.	.	.	.
.	.	24d#/	.	.	.	.	.	.	.	.	.	.	.	.	.	.	.	.	.	.
.	.	24c##/JJ	.	.	.	.	.	.	.	.	.	.	.	.	.	.	.	.	.	.
!!LO:LB:g=original	!	!	!	!	!	!	!	!	!	!	!	!	!	!	!	!	!	!	!	!
=64	=64	=64	=64	=64	=64	=64	=64	=64	=64	=64	=64	=64	=64	=64	=64	=64	=64	=64	=64	=64
8GG#\L	.	8d#/	.	.	4d#/	.	.	.	4g#/	speł-	com-	.	4b\	speł-	com-	.	2r	.	.	.
8D#\	.	8r	.	.	.	.	.	.	.	.	.	.	.	.	.	.	.	.	.	.
8G#\J	.	8d#'>/ 8g# 8b	.	.	8d#/	.	.	.	8g#/	-nią	-pion-	.	8b\	-nią	-pion-	.	.	.	.	.
8GG#\L	.	8d#'>/ 8b 8dd#	.	.	8d#/	.	.	.	8g#/	się	-si.	.	8b\	się	-si.	.	.	.	.	.
8D#\	.	8r	.	.	8r	.	.	.	8r	.	.	.	4r	.	.	.	8r	.	.	.
8G#\J	.	8d#'>/ 8g# 8b	.	.	8r	.	.	.	8r	.	.	.	.	.	.	.	8b\	Tak	En-	.
=65	=65	=65	=65	=65	=65	=65	=65	=65	=65	=65	=65	=65	=65	=65	=65	=65	=65	=65	=65	=65
8FF#\L	.	8c#'>/ 8an 8dd#	.	.	4r	.	.	.	4r	.	.	.	4r	.	.	.	4.an/	dzi-	-tr'og-	.
(8F#\	.	8r	.	.	.	.	.	.	.	.	.	.	.	.	.	.	.	.	.	.
!	!	!LO:TUP:a:problem:klamra łukowa	!	!	!	!	!	!	!	!	!	!	!	!	!	!	!	!	!	!
8An\J)	.	24e^/LL	.	.	8r	.	.	.	8r	.	.	.	8r	.	.	.	.	.	.	.
.	.	24d#/	.	.	.	.	.	.	.	.	.	.	.	.	.	.	.	.	.	.
.	.	24c##X/JJ	.	.	.	.	.	.	.	.	.	.	.	.	.	.	.	.	.	.
8FF#\L	.	8d#/	.	.	4r	.	.	.	4r	.	.	.	4r	.	.	.	8a/	-siaj!	-gi.	.
(8F#\	.	8r	.	.	.	.	.	.	.	.	.	.	.	.	.	.	8r	.	.	.
!	!	!LO:TUP:a:problem:klamra łukowa	!	!	!	!	!	!	!	!	!	!	!	!	!	!	!	!	!	!
8A\J)	.	24e^/LL	.	.	8f#/	Więc	Per-	.	8f#/	Więc	Per-	.	8an/	Więc	Per-	.	8r	.	.	.
.	.	24d#/	.	.	.	.	.	.	.	.	.	.	.	.	.	.	.	.	.	.
.	.	24c##/JJ	.	.	.	.	.	.	.	.	.	.	.	.	.	.	.	.	.	.
=66	=66	=66	=66	=66	=66	=66	=66	=66	=66	=66	=66	=66	=66	=66	=66	=66	=66	=66	=66	=66
8FF#\L	.	8d#/	.	.	[4.d#/	skąd-	-che	.	4.an/	skąd-	-che	.	4.cc#\	skąd-	-che	.	2.r	.	.	.
(8F#\	.	8r	.	.	.	.	.	.	.	.	.	.	.	.	.	.	.	.	.	.
8An\J)	.	8c#/ 8d# 8f# 8an	.	.	.	.	.	.	.	.	.	.	.	.	.	.	.	.	.	.
8FF#\L	.	8c#/ 8d# 8g# 8b	.	.	4d#/]	.	.	.	4f#/	-że	dun-	.	4b\	-że	dun-	.	.	.	.	.
(8F#\	.	8r	.	.	.	.	.	.	.	.	.	.	.	.	.	.	.	.	.	.
8A\J)	.	8c#/ 8a 8cc#	.	.	8d#/	-że	a-	.	8c#/	ta	-que	.	8an/	ta	-que	.	.	.	.	.
=67	=67	=67	=67	=67	=67	=67	=67	=67	=67	=67	=67	=67	=67	=67	=67	=67	=67	=67	=67	=67
8FF#\L	.	8B#X/ 8g# 8dd#	.	.	4d#/	skąd-	-dun-	.	2.B#X/	chmu-	fo-	.	2.g#/	chmu-	fo-	.	2.r	.	.	.
(8D#\	.	8r	.	.	.	.	.	.	.	.	.	.	.	.	.	.	.	.	.	.
!	!	!LO:TUP:a:problem:klamra łukowa	!	!	!	!	!	!	!	!	!	!	!	!	!	!	!	!	!	!
8G#\J)	.	24e^/LL	.	.	8e/	-że	-que	.	.	.	.	.	.	.	.	.	.	.	.	.
.	.	24d#/	.	.	.	.	.	.	.	.	.	.	.	.	.	.	.	.	.	.
.	.	24c##X/JJ	.	.	.	.	.	.	.	.	.	.	.	.	.	.	.	.	.	.
8FF#\L	.	8d#/	.	.	4d#/	chmu-	fo-	.	.	.	.	.	.	.	.	.	.	.	.	.
(8D#\	.	8r	.	.	.	.	.	.	.	.	.	.	.	.	.	.	.	.	.	.
!	!	!LO:TUP:a:problem:klamra łukowa	!	!	!	!	!	!	!	!	!	!	!	!	!	!	!	!	!	!
8G#\J)	.	24e^/LL	.	.	8e/	-ra-	.	.	.	.	.	.	.	.	.	.	.	.	.	.
.	.	24d#/	.	.	.	.	.	.	.	.	.	.	.	.	.	.	.	.	.	.
.	.	24c##/JJ	.	.	.	.	.	.	.	.	.	.	.	.	.	.	.	.	.	.
!!LO:PB:g=original	!	!	!	!	!	!	!	!	!	!	!	!	!	!	!	!	!	!	!	!
=68	=68	=68	=68	=68	=68	=68	=68	=68	=68	=68	=68	=68	=68	=68	=68	=68	=68	=68	=68	=68
8FF#/L	.	8d#/	.	.	4.d#/	-ta	-sca	.	4g#/	-ra	-sca	.	4g#/	-ra	-sca	.	2.ryy	.	.	.
(8D#/	.	8r	.	.	.	.	.	.	.	.	.	.	.	.	.	.	.	.	.	.
8G#/J)	.	8g#/ 8b#X 8dd#	.	.	.	.	.	.	8r	.	.	.	8r	.	.	.	.	.	.	.
8FF#/L	.	8g#\ 8b# 8dd# 8gg#	.	.	4.G#/	.	.	.	4.g#/	Co	sul	.	4.g#/	Co	sul	.	.	.	.	.
(8D#/	.	8r	.	.	.	.	.	.	.	.	.	.	.	.	.	.	.	.	.	.
8G#/J)	.	8B#X/ 8d# 8g#	.	.	.	.	.	.	.	.	.	.	.	.	.	.	.	.	.	.
=69	=69	=69	=69	=69	=69	=69	=69	=69	=69	=69	=69	=69	=69	=69	=69	=69	=69	=69	=69	=69
4EE/ 4E	.	8c#/ 8g# 8cc#	.	.	[4.e/	.	.	.	[4.g#/	two-	fron-	.	[4.cc#\	two-	fron-	.	2.ryy	.	.	.
.	.	(8c#/L	.	.	.	.	.	.	.	.	.	.	.	.	.	.	.	.	.	.
8r	.	8g#/	.	.	.	.	.	.	.	.	.	.	.	.	.	.	.	.	.	.
4E\ 4G#	.	8cc#/	.	.	4e/]	.	.	.	4g#/]	.	.	.	4cc#\]	.	.	.	.	.	.	.
.	.	8g#/	.	.	.	.	.	.	.	.	.	.	.	.	.	.	.	.	.	.
8r	.	8c#/J)	.	.	8e/	.	.	.	8g#/	-je	-te	.	8cc#\	-je	-te	.	.	.	.	.
=70	=70	=70	=70	=70	=70	=70	=70	=70	=70	=70	=70	=70	=70	=70	=70	=70	=70	=70	=70	=70
4DD#/ 4D#	.	8r	.	.	[4.d#/	.	.	.	[4.g#/	czo-	tuo-	.	[4.b\	czo-	tuo	.	2.ryy	.	.	.
.	.	(8d#/L	.	.	.	.	.	.	.	.	.	.	.	.	.	.	.	.	.	.
8r	.	8g#/J	.	.	.	.	.	.	.	.	.	.	.	.	.	.	.	.	.	.
4D#\ 4G#	.	8b/L	.	.	4d#/]	.	.	.	4g#/]	.	.	.	4b\]	.	.	.	.	.	.	.
.	.	8g#/	.	.	.	.	.	.	.	.	.	.	.	.	.	.	.	.	.	.
8r	.	8d#/J)	.	.	8d#/	.	.	.	8g#/	-ło	-si	.	8b\	-ło	si	.	.	.	.	.
=71	=71	=71	=71	=71	=71	=71	=71	=71	=71	=71	=71	=71	=71	=71	=71	=71	=71	=71	=71	=71
4CC#/ 4C#	.	8r	.	.	4.c#/	.	.	.	4.e/	tros-	po-	.	4.an/	tros-	po-	.	2.ryy	.	.	.
.	.	(8e/L	.	.	.	.	.	.	.	.	.	.	.	.	.	.	.	.	.	.
8r	.	8ee/J	.	.	.	.	.	.	.	.	.	.	.	.	.	.	.	.	.	.
4E\ 4An 4c#	.	8cc#/L	.	.	4c#/	.	.	.	4e/	-ką	-se u-	.	4a/	-ką	-se u-	.	.	.	.	.
.	.	8an/	.	.	.	.	.	.	.	.	.	.	.	.	.	.	.	.	.	.
8r	.	8e/J)	.	.	8c#/	.	.	.	8e/	o-	-na	.	8a/	o-	-na	.	.	.	.	.
=72	=72	=72	=72	=72	=72	=72	=72	=72	=72	=72	=72	=72	=72	=72	=72	=72	=72	=72	=72	=72
*	*	*^	*	*	*	*	*	*	*	*	*	*	*	*	*	*	*	*	*	*
4BBB/ 4BB	.	4.g#/	(8fn\L	.	f	4.dn/	.	.	.	4.fn/	-cie-	nu-	.	4.g#/	-cie-	nu-	.	2.ryy	.	.	.
.	.	.	8dn\	.	.	.	.	.	.	.	.	.	.	.	.	.	.	.	.	.	.
8r	.	.	8f\J	.	.	.	.	.	.	.	.	.	.	.	.	.	.	.	.	.	.
4E\ 4G#	.	4g#/	8e\L	.	.	4.d/	.	.	.	4.e/	-nia?	-be?	.	8g#/	-nia?	-be?	.	.	.	.	.
.	.	.	8d\J)	.	.	.	.	.	.	.	.	.	.	8r	.	.	.	.	.	.	.
8r	.	8b/	8rc	.	.	.	.	.	.	.	.	.	.	8r	.	.	.	.	.	.	.
*	*	*v	*v	*	*	*	*	*	*	*	*	*	*	*	*	*	*	*	*	*	*
!!LO:LB:g=original	!	!	!	!	!	!	!	!	!	!	!	!	!	!	!	!	!	!	!	!
=73||	=73||	=73||	=73||	=73||	=73||	=73||	=73||	=73||	=73||	=73||	=73||	=73||	=73||	=73||	=73||	=73||	=73||	=73||	=73||	=73||
*k[f#c#g#]	*	*k[f#c#g#]	*	*	*k[f#c#g#]	*	*	*	*k[f#c#g#]	*	*	*	*k[f#c#g#]	*	*	*	*yyk[f#c#g#]	*	*	*
[2.AA/ [2.E	.	8c#/ 8a	.	pp	2.c#/	.	.	.	2.e/	Co	Ah!	.	4.a/	Co	Del	.	2.ryy	.	.	.
.	.	(>8A/L	.	.	.	.	.	.	.	.	.	.	.	.	.	.	.	.	.	.
.	.	8c#/J	.	.	.	.	.	.	.	.	.	.	.	.	.	.	.	.	.	.
.	.	8e/L	.	.	.	.	.	.	.	.	.	.	8cc#\L	pię-	tuo	.	.	.	.	.
.	.	8a/	.	.	.	.	.	.	.	.	.	.	8a\J	.	.	.	.	.	.	.
.	.	8b/J	.	.	.	.	.	.	.	.	.	.	8cc#\	-kne	vel	.	.	.	.	.
=74	=74	=74	=74	=74	=74	=74	=74	=74	=74	=74	=74	=74	=74	=74	=74	=74	=74	=74	=74	=74
*	*	*^	*	*	*	*	*	*	*	*	*	*	*	*	*	*	*	*	*	*
4.AA/] 4.E]	.	8cc#/L	4.ryy	.	>	4.c#/	.	.	.	4.a/	twe	del	.	[4.ee\	o-	guar-	.	2.ryy	.	.	.
.	.	8ee/	.	.	.	.	.	.	.	.	.	.	.	.	.	.	.	.	.	.	.
.	.	8a/J)	.	.	.	.	.	.	.	.	.	.	.	.	.	.	.	.	.	.	.
4.AA/ 4.E	.	4.b/	(8d\L 8g#	.	]	8d/L	.	.	.	8g#/L	pię-	tuo	.	4ee\]	.	.	.	.	.	.	.
.	.	.	8e\)	.	.	8e/J	.	.	.	8e/J	.	.	.	.	.	.	.	.	.	.	.
.	.	.	8d\J 8g#	.	.	8d/	.	.	.	8g#/	-kne	bel	.	8e/	-czy	-do	.	.	.	.	.
*	*	*v	*v	*	*	*	*	*	*	*	*	*	*	*	*	*	*	*	*	*	*
=75	=75	=75	=75	=75	=75	=75	=75	=75	=75	=75	=75	=75	=75	=75	=75	=75	=75	=75	=75	=75
[2.AA/ [2.E	.	8c#/ 8a	.	.	4.c#/	.	.	.	4.a/	o-	guar-	.	(4e/	za-	mu-	.	2.ryy	.	.	.
.	.	(8A/L	.	<	.	.	.	.	.	.	.	.	.	.	.	.	.	.	.	.
.	.	8c#/J	.	.	.	.	.	.	.	.	.	.	8a/)	.	.	.	.	.	.	.
.	.	8e/L	.	.	4c#/	.	.	.	4e/	-czy	-do,	.	8cc#\L	-ćmie-	-to e il	.	.	.	.	.
.	.	8a/	.	.	.	.	.	.	.	.	.	.	8a\J	.	.	.	.	.	.	.
.	.	8b/J	.	[[	8r	.	.	.	8r	.	.	.	8cc#\	-wa	ful-	.	.	.	.	.
=76	=76	=76	=76	=76	=76	=76	=76	=76	=76	=76	=76	=76	=76	=76	=76	=76	=76	=76	=76	=76
*	*	*^	*	*	*	*	*	*	*	*	*	*	*	*	*	*	*	*	*	*
4.AA/] 4.E]	.	8cc#/L	4.ryy	.	>	4.c#/	.	.	.	4.a/	za-	mu-	.	[4.ee\	mgłą?	-gor,	.	2.ryy	.	.	.
.	.	8ee/	.	.	.	.	.	.	.	.	.	.	.	.	.	.	.	.	.	.	.
.	.	8a/J)	.	.	.	.	.	.	.	.	.	.	.	.	.	.	.	.	.	.	.
4.AA/ 4.E	.	4.b/	(8d\L 8g#	.	]	8d/L	.	.	.	8g#/L	-ćmie-	-to e il	.	8ee\]	.	.	.	.	.	.	.
.	.	.	8e\)	.	.	8e/J	.	.	.	8e/J	.	.	.	8r	.	.	.	.	.	.	.
.	.	.	8d\J 8g#	.	.	8d/	.	.	.	8g#/	-wa	ful-	.	8e/	co	del	.	.	.	.	.
*	*	*v	*v	*	*	*	*	*	*	*	*	*	*	*	*	*	*	*	*	*	*
=77	=77	=77	=77	=77	=77	=77	=77	=77	=77	=77	=77	=77	=77	=77	=77	=77	=77	=77	=77	=77
(8AA\L	.	(8a/L	.	.	4c#/	.	.	.	4a/	mgłą?	-gor,	.	(4e/	o-	tuo	.	2.ryy	.	.	.
8E\	.	8e/	.	.	.	.	.	.	.	.	.	.	.	.	.	.	.	.	.	.
8A\J)	.	8c#/J)	.	.	8r	.	.	.	8r	.	.	.	8c#/)	.	.	.	.	.	.	.
(8A\L	.	(8e/L	.	.	4r	.	.	.	4r	.	.	.	4c#/	-czy	guar-	.	.	.	.	.
8E\	.	8a/	.	.	.	.	.	.	.	.	.	.	.	.	.	.	.	.	.	.
8AA\J)	.	8cc#/J)	.	.	8c#/	za-	e	.	8e/	za-	e	.	8a/	za-	-do	.	.	.	.	.
=78	=78	=78	=78	=78	=78	=78	=78	=78	=78	=78	=78	=78	=78	=78	=78	=78	=78	=78	=78	=78
(8AA\L	.	(8cc#/L	.	.	(4c#/	-ćmie-	mu-	.	(4e/	-ćmie-	mu-	.	(4a/	-ćmie-	mu-	.	2.ryy	.	.	.
8E\	.	8a/	.	.	.	.	.	.	.	.	.	.	.	.	.	.	.	.	.	.
8c#\J)	.	8e/J)	.	.	8e/)	.	-to il	.	8c#/)	.	.	.	8e/)	.	.	.	.	.	.	.
(8c#\L	.	(8a\L	.	.	4.e/	-wa	ful	.	(4e/	-wa	-to il	.	(4e/	-wa	-to e il	.	.	.	.	.
8E\	.	8cc#\	.	.	.	.	.	.	.	.	.	.	.	.	.	.	.	.	.	.
8AA\J)	.	8ee\J)	.	.	.	.	.	.	8a/)	.	ful-	.	8cc#\)	.	ful-	.	.	.	.	.
!!LO:LB:g=original	!	!	!	!	!	!	!	!	!	!	!	!	!	!	!	!	!	!	!	!
=79	=79	=79	=79	=79	=79	=79	=79	=79	=79	=79	=79	=79	=79	=79	=79	=79	=79	=79	=79	=79
!	!	!LO:TX:a:t=74	!	!	!	!	!	!	!	!	!	!	!	!	!	!	!	!	!	!
(8AA\L	.	8e/ 8a 8cc# 8ee	.	.	[4.A/ [4.e	.	.	.	[4.a/	mgłą?	-gor?	.	[4.cc#\	mgłą?	-gor?	.	2.ryy	.	.	.
8E\	.	8r	.	.	.	.	.	.	.	.	.	.	.	.	.	.	.	.	.	.
!	!	!LO:TUP:a:problem:klamra łukowa	!	!	!	!	!	!	!	!	!	!	!	!	!	!	!	!	!	!
8A\J)	.	24d^/LL	.	.	.	.	.	.	.	.	.	.	.	.	.	.	.	.	.	.
.	.	24c#/	.	.	.	.	.	.	.	.	.	.	.	.	.	.	.	.	.	.
.	.	24B#X/JJ	.	.	.	.	.	.	.	.	.	.	.	.	.	.	.	.	.	.
(8AA\L	.	8c#/	.	.	4A/] 4e]	.	.	.	4a/]	.	.	.	4cc#\]	.	.	.	.	.	.	.
8E\	.	8r	.	.	.	.	.	.	.	.	.	.	.	.	.	.	.	.	.	.
!	!	!LO:TUP:a:problem:klamra łukowa	!	!	!	!	!	!	!	!	!	!	!	!	!	!	!	!	!	!
8A\J)	.	24d^/LL	.	.	8r	.	.	.	8r	.	.	.	8r	.	.	.	.	.	.	.
.	.	24c#/	.	.	.	.	.	.	.	.	.	.	.	.	.	.	.	.	.	.
.	.	24B#/JJ	.	.	.	.	.	.	.	.	.	.	.	.	.	.	.	.	.	.
=80	=80	=80	=80	=80	=80	=80	=80	=80	=80	=80	=80	=80	=80	=80	=80	=80	=80	=80	=80	=80
(8AA\L	.	8c#/	.	.	8r	.	.	.	8r	.	.	.	8r	.	.	.	2.ryy	.	.	.
8E\	.	8r	.	.	8r	.	.	.	8r	.	.	.	8r	.	.	.	.	.	.	.
8A\J)	.	8c#/ 8e 8a	.	.	8c#/	Czy	La	.	8e/	czy	La	.	8cc#\	Czy	La	.	.	.	.	.
(8AA\L	.	8c#/ 8e 8cc#	.	.	4c#/	zmia-	nuo-	.	4e/	zmia-	nuo-	.	4cc#\	zmia-	nuo-	.	.	.	.	.
8E\	.	8r	.	.	.	.	.	.	.	.	.	.	.	.	.	.	.	.	.	.
8A\J)	.	8c#/ 8e 8a	.	.	8c#/	-ny	-va	.	8e/	-ny	-va	.	8cc#\	-ny	-va	.	.	.	.	.
=81	=81	=81	=81	=81	=81	=81	=81	=81	=81	=81	=81	=81	=81	=81	=81	=81	=81	=81	=81	=81
(8GG#\L	.	8c#/ 8e#X 8cc#	.	.	(4c#/	lo-	sor-	.	2.e#X/	lo-	sor-	.	2.b\	lo-	sor-	.	2.ryy	.	.	.
8C#\	.	8r	.	.	.	.	.	.	.	.	.	.	.	.	.	.	.	.	.	.
!	!	!LO:TUP:a:problem:klamra łukowa	!	!	!	!	!	!	!	!	!	!	!	!	!	!	!	!	!	!
8G#\J)	.	24d^/LL	.	.	8d/)	.	.	.	.	.	.	.	.	.	.	.	.	.	.	.
.	.	24c#/	.	.	.	.	.	.	.	.	.	.	.	.	.	.	.	.	.	.
.	.	24B#X/JJ	.	.	.	.	.	.	.	.	.	.	.	.	.	.	.	.	.	.
(8GG#\L	.	8c#/	.	.	(4c#/	-su?	-te	.	.	.	.	.	.	.	.	.	.	.	.	.
8C#\	.	8r	.	.	.	.	.	.	.	.	.	.	.	.	.	.	.	.	.	.
!	!	!LO:TUP:a:problem:klamra łukowa	!	!	!	!	!	!	!	!	!	!	!	!	!	!	!	!	!	!
8G#\J)	.	24d^/LL	.	.	8d/)	o-	ti-	.	.	.	.	.	.	.	.	.	.	.	.	.
.	.	24c#/	.	.	.	.	.	.	.	.	.	.	.	.	.	.	.	.	.	.
.	.	24B#/JJ	.	.	.	.	.	.	.	.	.	.	.	.	.	.	.	.	.	.
=82	=82	=82	=82	=82	=82	=82	=82	=82	=82	=82	=82	=82	=82	=82	=82	=82	=82	=82	=82	=82
(8GG#\L	.	8c#/	.	.	[4.c#/	-ba-	-mor	.	4e#X/	-su?	-te	.	4b\	-su?	-te	.	2.ryy	.	.	.
8C#\	.	8r	.	.	.	.	.	.	.	.	.	.	.	.	.	.	.	.	.	.
8G#\J)	.	8c#/ 8e#X 8b	.	.	.	.	.	.	8e#/	o-	ti-	.	8b\	o-	ti-	.	.	.	.	.
(8GG#\L	.	8c#/ 8e# 8cc#	.	.	4c#/]	.	.	.	4e#/	-ba-	-mor	.	4b\	-ba-	-mor	.	.	.	.	.
8C#\	.	8r	.	.	.	.	.	.	.	.	.	.	.	.	.	.	.	.	.	.
8G#\J)	.	8c#/ 8e# 8b	.	.	8c#/	-wa	t'in-	.	8e#/	-wa	t'in-	.	8b\	-wa	t'in-	.	.	.	.	.
=83	=83	=83	=83	=83	=83	=83	=83	=83	=83	=83	=83	=83	=83	=83	=83	=83	=83	=83	=83	=83
8FF#\L	.	8c#/ 8f# 8a	.	.	(4c#/	pło-	-fon-	.	4.f#/	pło-	-fon-	.	4.a/	pło-	-fon-	.	2.ryy	.	.	.
(8F#\	.	8r	.	.	.	.	.	.	.	.	.	.	.	.	.	.	.	.	.	.
!	!	!LO:TUP:a:problem:klamra łukowa	!	!	!	!	!	!	!	!	!	!	!	!	!	!	!	!	!	!
8A\J)	.	24d^/LL	.	.	8d/)	.	.	.	.	.	.	.	.	.	.	.	.	.	.	.
.	.	24c#/	.	.	.	.	.	.	.	.	.	.	.	.	.	.	.	.	.	.
.	.	24B#X/JJ	.	.	.	.	.	.	.	.	.	.	.	.	.	.	.	.	.	.
8FF#\L	.	8c#/	.	.	4c#/	-cha,	-de,	.	8f#/	-cha,	-de,	.	8a/	-cha,	-de,	.	.	.	.	.
(8F#\	.	8r	.	.	.	.	.	.	8r	.	.	.	8r	.	.	.	.	.	.	.
!	!	!LO:TUP:a:problem:klamra łukowa	!	!	!	!	!	!	!	!	!	!	!	!	!	!	!	!	!	!
8A\J)	.	24d^/LL	.	.	8d/	.	.	.	8f#/	Czy	o	.	8a/	Czy	o	.	.	.	.	.
.	.	24c#/	.	.	.	.	.	.	.	.	.	.	.	.	.	.	.	.	.	.
.	.	24B#/JJ	.	.	.	.	.	.	.	.	.	.	.	.	.	.	.	.	.	.
!!LO:PB:g=original	!	!	!	!	!	!	!	!	!	!	!	!	!	!	!	!	!	!	!	!
=84	=84	=84	=84	=84	=84	=84	=84	=84	=84	=84	=84	=84	=84	=84	=84	=84	=84	=84	=84	=84
8FF#\L	.	8c#/	.	.	[4.c#/	.	.	.	[4.f#/	smu-	di	.	[4.a/	smu-	di	.	2.ryy	.	.	.
(8F#\	.	8r	.	.	.	.	.	.	.	.	.	.	.	.	.	.	.	.	.	.
8A\J)	.	8c#/ 8f# 8a	.	.	.	.	.	.	.	.	.	.	.	.	.	.	.	.	.	.
8FF#\L	.	8c#/ 8f# 8a 8cc#	.	.	4c#/]	.	.	.	4f#/]	.	.	.	4a/]	.	.	.	.	.	.	.
(8F#\	.	8r	.	.	.	.	.	.	.	.	.	.	.	.	.	.	.	.	.	.
8A\J)	.	8c#/ 8f# 8a	.	.	8c#/	.	.	.	8f#/	-tnych	pre-	.	8a/	-tnych	pre-	.	.	.	.	.
=85	=85	=85	=85	=85	=85	=85	=85	=85	=85	=85	=85	=85	=85	=85	=85	=85	=85	=85	=85	=85
8EE\L	.	8c#/ 8gn 8cc#	.	.	(4c#/	prze-	sa-	.	[4.e/	prze-	-sa-	.	[4.gn/	prze-	-sa-	.	2.ryy	.	.	.
(8E\	.	8r	.	.	.	.	.	.	.	.	.	.	.	.	.	.	.	.	.	.
!	!	!LO:TUP:a:problem:klamra łukowa	!	!	!	!	!	!	!	!	!	!	!	!	!	!	!	!	!	!
8Gn\J)	.	24d^/LL	.	.	8d/)	.	.	.	.	.	.	.	.	.	.	.	.	.	.	.
.	.	24c#/	.	.	.	.	.	.	.	.	.	.	.	.	.	.	.	.	.	.
.	.	24B#X/JJ	.	.	.	.	.	.	.	.	.	.	.	.	.	.	.	.	.	.
8EE\L	.	8c#/	.	.	(4c#/	-czuć	-gi	.	4e/]	.	.	.	4g/]	.	.	.	.	.	.	.
(8E\	.	8r	.	.	.	.	.	.	.	.	.	.	.	.	.	.	.	.	.	.
!	!	!LO:TUP:a:problem:klamra łukowa	!	!	!	!	!	!	!	!	!	!	!	!	!	!	!	!	!	!
8G\J)	.	24d^/LL	.	.	8d/)	.	t'as-	.	8e/	-czuć	-gi	.	8g/	-czuć	-gi	.	.	.	.	.
.	.	24c#/	.	.	.	.	.	.	.	.	.	.	.	.	.	.	.	.	.	.
.	.	24B#/JJ	.	.	.	.	.	.	.	.	.	.	.	.	.	.	.	.	.	.
=86	=86	=86	=86	=86	=86	=86	=86	=86	=86	=86	=86	=86	=86	=86	=86	=86	=86	=86	=86	=86
8EE\L	.	8c#/	.	.	[4.c#/	chmu-	-sal	.	4.gn/	po-	t'as-	.	4.b\	po-	t'as-	.	2.ryy	.	.	.
(8E\	.	8r	.	.	.	.	.	.	.	.	.	.	.	.	.	.	.	.	.	.
8A\J)	.	8c#/ 8gn 8b	.	.	.	.	.	.	.	.	.	.	.	.	.	.	.	.	.	.
8EE\L	.	8c#/ 8g 8cc#	.	.	4c#/]	.	.	.	4e/	-stać	-sal	.	4a/	-stać	-sal	.	.	.	.	.
(8E\	.	8r	.	.	.	.	.	.	.	.	.	.	.	.	.	.	.	.	.	.
8A\J)	.	8c#/ 8g 8b	.	.	8c#/	-ra	t'as-	.	8e/	po-	il	.	8gn/	po-	il	.	.	.	.	.
=87	=87	=87	=87	=87	=87	=87	=87	=87	=87	=87	=87	=87	=87	=87	=87	=87	=87	=87	=87	=87
8EE/L	.	8c#/ 8f# 8a#X 8cc#	.	.	(4c#/	chmu-	-sa-	.	2.f#/	-nu-	dub-	.	2.f#/	-nu-	dub-	.	2.ryy	.	.	.
(8C#/	.	8r	.	.	.	.	.	.	.	.	.	.	.	.	.	.	.	.	.	.
!	!	!LO:TUP:a:problem:klamra łukowa	!	!	!	!	!	!	!	!	!	!	!	!	!	!	!	!	!	!
8F#/J)	.	24d^/LL	.	.	8d/)	.	.	.	.	.	.	.	.	.	.	.	.	.	.	.
.	.	24c#/	.	.	.	.	.	.	.	.	.	.	.	.	.	.	.	.	.	.
.	.	24B#X/JJ	.	.	.	.	.	.	.	.	.	.	.	.	.	.	.	.	.	.
8EE/L	.	4c#/	.	.	4c#/	-ra	-le	.	.	.	.	.	.	.	.	.	.	.	.	.
(8C#/	.	.	.	.	.	.	.	.	.	.	.	.	.	.	.	.	.	.	.	.
!	!	!LO:TUP:a:problem:klamra łukowa	!	!	!	!	!	!	!	!	!	!	!	!	!	!	!	!	!	!
8F#/J)	.	24d^/LL	.	.	8d/	po-	il	.	.	.	.	.	.	.	.	.	.	.	.	.
.	.	24c#/	.	.	.	.	.	.	.	.	.	.	.	.	.	.	.	.	.	.
.	.	24B#/JJ	.	.	.	.	.	.	.	.	.	.	.	.	.	.	.	.	.	.
!!LO:LB:g=original	!	!	!	!	!	!	!	!	!	!	!	!	!	!	!	!	!	!	!	!
=88	=88	=88	=88	=88	=88	=88	=88	=88	=88	=88	=88	=88	=88	=88	=88	=88	=88	=88	=88	=88
8EE/L	.	8c#/	.	.	4.c#/	-nu-	dub-	.	4f#/	-ra?	-bio?	.	4f#/	-ra?	-bio?	.	2.ryy	.	.	.
(8C#/	.	8r	.	.	.	.	.	.	.	.	.	.	.	.	.	.	.	.	.	.
8F#/J)	.	8f#/ 8a#X 8cc#	.	.	.	.	.	.	8r	.	.	.	8r	.	.	.	.	.	.	.
8EE/L	.	8f#\ 8a# 8ff#	.	.	8f#/	-ra?	-bio?	.	4r	.	.	.	4r	.	.	.	.	.	.	.
(8C#/	.	8r	.	.	8r	.	.	.	.	.	.	.	.	.	.	.	.	.	.	.
8F#/J)	.	8A#X/ 8c# 8f#	.	.	8f#/	.	.	.	8f#/	Czy	Lo	.	8f#/	Czy	Lo	.	.	.	.	.
=89	=89	=89	=89	=89	=89	=89	=89	=89	=89	=89	=89	=89	=89	=89	=89	=89	=89	=89	=89	=89
4DD/ 4D	.	8B/ 8f#	.	.	[4.B/	.	.	.	[4.f#/	mąż	spo-	.	[4.b\	mąż	spo-	.	2.ryy	.	.	.
.	.	(8B/L	.	.	.	.	.	.	.	.	.	.	.	.	.	.	.	.	.	.
8r	.	8f#/J	.	.	.	.	.	.	.	.	.	.	.	.	.	.	.	.	.	.
4D\ 4F#	.	8b/L	.	.	4B/]	.	.	.	4f#/]	.	.	.	4b\]	.	.	.	.	.	.	.
.	.	8f#/	.	.	.	.	.	.	.	.	.	.	.	.	.	.	.	.	.	.
8r	.	8B/J)	.	.	8B/	.	.	.	8f#/	twój	-so	.	8b\	twój	-so	.	.	.	.	.
=90	=90	=90	=90	=90	=90	=90	=90	=90	=90	=90	=90	=90	=90	=90	=90	=90	=90	=90	=90	=90
4CC#/ 4C#	.	8r	.	.	4.c#/	.	.	.	4.e/	przy-	tuo	.	4.a/	przy-	tuo	.	2.ryy	.	.	.
.	.	(8c#/L	.	.	.	.	.	.	.	.	.	.	.	.	.	.	.	.	.	.
8r	.	8e/J	.	.	.	.	.	.	.	.	.	.	.	.	.	.	.	.	.	.
4C#\ 4E 4A	.	8a/L	.	.	4c#/	.	.	.	4e/	-szły	for-	.	4a/	-szły	for-	.	.	.	.	.
.	.	8e/	.	.	.	.	.	.	.	.	.	.	.	.	.	.	.	.	.	.
8r	.	8c#/J)	.	.	8c#/	.	.	.	8e/	nie	-se as-	.	8a/	nie	-se as-	.	.	.	.	.
=91	=91	=91	=91	=91	=91	=91	=91	=91	=91	=91	=91	=91	=91	=91	=91	=91	=91	=91	=91	=91
4BBB/ 4BB	.	8r	.	.	4d/	.	.	.	4gn/	do-	-sai	.	4gn/	do-	-sai	.	2.ryy	.	.	.
.	.	(8d/L	.	.	.	.	.	.	.	.	.	.	.	.	.	.	.	.	.	.
8r	.	8dd/J	.	.	8d/	.	.	.	8d/	-syć	non-	.	8d/	-syć	non	.	.	.	.	.
4BB\ 4D 4Gn	.	8b/L	.	.	4d/	.	.	.	4d/	cie-	-t'a-	.	4d/	cie-	t'a-	.	.	.	.	.
.	.	8gn/	.	.	.	.	.	.	.	.	.	.	.	.	.	.	.	.	.	.
8r	.	8d/J)	.	.	8d/	.	.	.	8d/	-bie	-ma an-	.	8g/	-bie	-ma an-	.	.	.	.	.
=92	=92	=92	=92	=92	=92	=92	=92	=92	=92	=92	=92	=92	=92	=92	=92	=92	=92	=92	=92	=92
*	*	*^	*	*	*	*	*	*	*	*	*	*	*	*	*	*	*	*	*	*
4AAA/ 4AA	.	[4.f#/	(8e\L	.	.	4.cn/	.	.	.	4.e-X/	ko-	-co-	.	4.f#/	ko-	-co-	.	2.ryy	.	.	.
.	.	.	8cn\	.	.	.	.	.	.	.	.	.	.	.	.	.	.	.	.	.	.
8r	.	.	8e\J)	.	.	.	.	.	.	.	.	.	.	.	.	.	.	.	.	.	.
4Cn\ 4F# 4A	.	4f#/]	(8e\L	.	.	8c/	.	.	.	8e-/	-cha?	-ra?	.	8f#/	-cha?	-ra?	.	.	.	.	.
.	.	.	8c\J)	.	.	8r	.	.	.	8r	.	.	.	8r	.	.	.	.	.	.	.
8r	.	8a/	8rc	.	.	8c/	.	.	.	8e-/	Czy	Op-	.	8f#/	Czy	Op-	.	.	.	.	.
*	*	*v	*v	*	*	*	*	*	*	*	*	*	*	*	*	*	*	*	*	*	*
=93||	=93||	=93||	=93||	=93||	=93||	=93||	=93||	=93||	=93||	=93||	=93||	=93||	=93||	=93||	=93||	=93||	=93||	=93||	=93||	=93||
*k[b-e-a-]	*	*k[b-e-a-]	*	*	*k[b-e-a-]	*	*	*	*k[b-e-a-]	*	*	*	*k[b-e-a-]	*	*	*	*k[b-e-a-]	*	*	*
8BB-/	.	8e-/ 8g	.	pp	[2.B-/	.	.	.	[2.e-/	ty,	-pur	.	8g/	ty	-pur,	.	2.ryy	.	.	.
(8e-\L	.	8r	.	<	.	.	.	.	.	.	.	.	8r	.	.	.	.	.	.	.
8B-\J	.	(8g/	.	.	.	.	.	.	.	.	.	.	8b-\	czy	op-	.	.	.	.	.
.	.	.	.	.	.	.	.	.	.	.	.	.	8qdd/	.	.	.	.	.	.	.
8G\L	.	8b-\L	.	.	.	.	.	.	.	.	.	.	4cc\	ty	-pur	.	.	.	.	.
8E-\	.	8ee-\	.	.	.	.	.	.	.	.	.	.	.	.	.	.	.	.	.	.
8BB-\J)	.	8ff\J)	.	[[	.	.	.	.	.	.	.	.	8b-\	nie	tu	.	.	.	.	.
!!LO:LB:g=original	!	!	!	!	!	!	!	!	!	!	!	!	!	!	!	!	!	!	!	!
=94	=94	=94	=94	=94	=94	=94	=94	=94	=94	=94	=94	=94	=94	=94	=94	=94	=94	=94	=94	=94
*	*	*^	*	*	*	*	*	*	*	*	*	*	*	*	*	*	*	*	*	*
(8BB-\L	.	(8gg\L	4.ryy	.	>	8B-/]	.	.	.	8e-/]	.	.	.	2.b-\	chęt-	stes-	.	2.r	.	.	.
8E-\	.	8ee-\	.	.	.	8r	.	.	.	8r	.	.	.	.	.	.	.	.	.	.	.
8G\J)	.	8cc\J)	.	.	.	8e-/	.	.	.	8g/	czy	op-	.	.	.	.	.	.	.	.	.
4.B-\	.	(8b-/L	4.d\	.	]	8d/L	.	.	.	4b-\	ty	-pur-	.	.	.	.	.	.	.	.	.
.	.	8f/	.	.	.	8B-/J	.	.	.	.	.	.	.	.	.	.	.	.	.	.	.
.	.	8a-/J)	.	.	.	8d/	.	.	.	8a-/	nie-	-tu	.	.	.	.	.	.	.	.	.
*	*	*v	*v	*	*	*	*	*	*	*	*	*	*	*	*	*	*	*	*	*	*
=95	=95	=95	=95	=95	=95	=95	=95	=95	=95	=95	=95	=95	=95	=95	=95	=95	=95	=95	=95	=95
8BB-/	.	8e-/ 8g	.	.	2.e-/	.	.	.	2.g/	-chęt-	stes-	.	4b-\	-nie	-sa	.	2.r	.	.	.
(8e-\L	.	8r	.	.	.	.	.	.	.	.	.	.	.	.	.	.	.	.	.	.
8B-\J	.	(8g/	.	.	.	.	.	.	.	.	.	.	8b-\	za-	gli	.	.	.	.	.
8G\L	.	8b-\L	.	<	.	.	.	.	.	.	.	.	8dd\L	-ślu-	ne-	.	.	.	.	.
8E-\	.	8ee-\	.	.	.	.	.	.	.	.	.	.	8cc\J	.	.	.	.	.	.	.
8C\J)	.	8ff\J	.	[[	.	.	.	.	.	.	.	.	8b-\	-biasz	-ghi il	.	.	.	.	.
=96	=96	=96	=96	=96	=96	=96	=96	=96	=96	=96	=96	=96	=96	=96	=96	=96	=96	=96	=96	=96
*	*	*^	*	*	*	*	*	*	*	*	*	*	*	*	*	*	*	*	*	*
(8BB-\L	.	8gg/L	4.ryy	.	>	4e-/	.	.	.	4g/	-nie,	-sa	.	[2.b-\	go?	cor?	.	2.r	.	.	.
8E-\	.	8ee-/	.	.	.	.	.	.	.	.	.	.	.	.	.	.	.	.	.	.	.
8G\J)	.	8cc/J	.	.	.	8e-/	.	.	.	8g/	czy	gli	.	.	.	.	.	.	.	.	.
4.B-\	.	8b-/L	4.d\	.	]	(8d/L	.	.	.	4b-\	ty	ne-	.	.	.	.	.	.	.	.	.
.	.	8f/	.	.	.	8B-/J)	.	.	.	.	.	.	.	.	.	.	.	.	.	.	.
.	.	8a-/J)	.	.	.	8d/	.	.	.	8a-/	nie-	-ghi il	.	.	.	.	.	.	.	.	.
*	*	*v	*v	*	*	*	*	*	*	*	*	*	*	*	*	*	*	*	*	*	*
=97	=97	=97	=97	=97	=97	=97	=97	=97	=97	=97	=97	=97	=97	=97	=97	=97	=97	=97	=97	=97
[4.E-\ [4.G	.	(8g/L	.	.	(4e-/	.	.	.	(4g/	-chęt-	co-	.	4b-\]	.	.	.	2.r	.	.	.
.	.	8e-/	.	.	.	.	.	.	.	.	.	.	.	.	.	.	.	.	.	.
.	.	8B-/J)	.	.	8B-/)	.	.	.	8e-/)	.	.	.	8r	.	.	.	.	.	.	.
8E-\] 8G]	.	(8e-/L	.	<	4B-/	.	.	.	4e-/	-nie	-re,	.	4r	.	.	.	.	.	.	.
8r	.	8g/	.	.	.	.	.	.	.	.	.	.	.	.	.	.	.	.	.	.
8E-\ 8G	.	8b-/J)	.	.	8e-/	.	.	.	8g/	za-	gli	.	8b-\	za-	gli	.	.	.	.	.
=98	=98	=98	=98	=98	=98	=98	=98	=98	=98	=98	=98	=98	=98	=98	=98	=98	=98	=98	=98	=98
!	!	!	!	!	!	!	!	!	!	!	!	!	!	!	!	!	!LO:TX:a:t=Neala.	!	!	!
4E-\ 4G	.	(8b-/L	.	.	(4e-/	.	.	.	(4g/	-ślu-	ne-	.	(4b-\	-ślu-	ne-	.	2.r	.	.	.
!	!	!	!	!	!	!	!	!	!	!	!	!	!	!	!	!	!LO:TX:a:i:t=Neala.	!	!	!
.	.	8g/	.	.	.	.	.	.	.	.	.	.	.	.	.	.	.	.	.	.
8r	.	8e-/J)	.	.	8B-/)	.	.	.	8e-/)	.	.	.	8g/)	.	.	.	.	.	.	.
8E-\ 8G	.	(8g\L	.	.	(4B-/	.	.	.	(4e-/	-biasz	-ghi il	.	(4g/	-biasz	-ghi il	.	.	.	.	.
8r	.	8b-\	.	.	.	.	.	.	.	.	.	.	.	.	.	.	.	.	.	.
8E-\ 8G	.	8ee-\J)	.	.	8e-/)	.	.	.	8g/)	.	.	.	8ee-\)	.	.	.	.	.	.	.
=99	=99	=99	=99	=99	=99	=99	=99	=99	=99	=99	=99	=99	=99	=99	=99	=99	=99	=99	=99	=99
*	*	*^	*	*	*	*	*	*	*	*	*	*	*	*	*	*	*	*	*	*
2.E-\ 2.G-X 2.c-X	.	4.ee-/ 4.gg-X	2.g-X\	.	pp	4e-/	.	.	.	4g-X/	go?	cor?	.	2.r	.	.	.	(4.gg-X\	Ja	Jo	.
.	.	.	.	.	.	8r	.	.	.	8r	.	.	.	.	.	.	.	.	.	.	.
.	.	(((>4dd-X/ 4ff-X	.	.	.	4r	.	.	.	4r	.	.	.	.	.	.	.	4ff-X\)	.	l'a-	.
.	.	8cc-X/))) 8ee-	.	.	.	8r	.	.	.	8r	.	.	.	.	.	.	.	8ee-\	go	-mo	.
*	*	*v	*v	*	*	*	*	*	*	*	*	*	*	*	*	*	*	*	*	*	*
!!LO:PB:g=original	!	!	!	!	!	!	!	!	!	!	!	!	!	!	!	!	!	!	!	!
=100	=100	=100	=100	=100	=100	=100	=100	=100	=100	=100	=100	=100	=100	=100	=100	=100	=100	=100	=100	=100
2.F-X\ 2.G-X 2.B-	.	((4.b-\ 4.dd-X	.	.	2.ryy	.	.	.	2.ryy	.	.	.	2.ryy	.	.	.	4.dd^\	ko-	tan-	.
.	.	4a-X/)) 4cc-X	.	.	.	.	.	.	.	.	.	.	.	.	.	.	8cc-X\	-cham	-to!	.
.	.	.	.	.	.	.	.	.	.	.	.	.	.	.	.	.	8r	.	.	.
.	.	8b-\ 8dd-	.	.	.	.	.	.	.	.	.	.	.	.	.	.	8dd\	Przy-	Con	.
=101	=101	=101	=101	=101	=101	=101	=101	=101	=101	=101	=101	=101	=101	=101	=101	=101	=101	=101	=101	=101
*	*	*^	*	*	*	*	*	*	*	*	*	*	*	*	*	*	*	*	*	*
2.E-\ 2.G-X 2.c-X	.	((>4.cc-X/ 4.ee-	2.g-X\	.	.	2.ryy	.	.	.	2.ryy	.	.	.	2.ryy	.	.	.	4.ee-\	-się-	lui	.
.	.	4b-/)) 4dd-X	.	.	.	.	.	.	.	.	.	.	.	.	.	.	.	4dd-X\	-gnę	sol	.
.	.	8a-/ 8cc-	.	.	.	.	.	.	.	.	.	.	.	.	.	.	.	8cc-X\	wam	de-	.
*	*	*v	*v	*	*	*	*	*	*	*	*	*	*	*	*	*	*	*	*	*	*
=102	=102	=102	=102	=102	=102	=102	=102	=102	=102	=102	=102	=102	=102	=102	=102	=102	=102	=102	=102	=102
2.E-\ 2.Gn 2.d-X	.	(>4.gn/ 4.b-	.	.	2.ryy	.	.	.	2.ryy	.	.	.	2.ryy	.	.	.	4.b-\	śmie-	-si-	.
.	.	4fn/ 4a-	.	.	.	.	.	.	.	.	.	.	.	.	.	.	4a-/	-le	-o	.
.	.	8g/) 8b-	.	.	.	.	.	.	.	.	.	.	.	.	.	.	8b-\	Z nim	tra-	.
=103	=103	=103	=103	=103	=103	=103	=103	=103	=103	=103	=103	=103	=103	=103	=103	=103	=103	=103	=103	=103
2.E-\ 2.A- 2.c-X	.	(>(>[4.e-/ 4.a- 4.cc-X	.	.	2.ryy	.	.	.	2.ryy	.	.	.	2.ryy	.	.	.	(4.cc-X\	żyć	-scor-	.
!	!	!	!	!LO:HP:b:t=dimin.	!	!	!	!	!	!	!	!	!	!	!	!	!	!	!	!LO:HP:a:t=dimin.
.	.	4e-/]) 4b-	.	>	.	.	.	.	.	.	.	.	.	.	.	.	4b-\)	.	-rer	>
.	.	8a-/)	.	.	.	.	.	.	.	.	.	.	.	.	.	.	8a-/	i	la	.
=104	=104	=104	=104	=104	=104	=104	=104	=104	=104	=104	=104	=104	=104	=104	=104	=104	=104	=104	=104	=104
4.F-X\ 4.A- 4.c-X	.	4.f-X/ 4.a-X	.	.	2.ryy	.	.	.	2.ryy	.	.	.	2.ryy	.	.	.	4.a-/	cier-	vi-	.
4.BB-/	.	4B-/ 4e- 4g-X	.	.	.	.	.	.	.	.	.	.	.	.	.	.	4g-X/	-pieć	-tae	.
.	.	8A-/ 8d-X 8f-	.	.	.	.	.	.	.	.	.	.	.	.	.	.	8f-X/	z nim	mo-	.
=105	=105	=105	=105	=105	=105	=105	=105	=105	=105	=105	=105	=105	=105	=105	=105	=105	=105	=105	=105	=105
!	!	!LO:N:vis=4	!	!	!	!	!	!	!	!	!	!	!	!	!	!	!	!	!	!
4EE-\	.	8G/ 8e-	.	.	2.ryy	.	.	.	2.ryy	.	.	.	2.ryy	.	.	.	4e-/	wraz!	-rir.	.
.	.	(8E-</L 8G<	.	.	.	.	.	.	.	.	.	.	.	.	.	.	.	.	.	.
8r	.	8G</J) 8B-<	.	.	.	.	.	.	.	.	.	.	.	.	.	.	8r	.	.	.
4E-\	.	8r	.	.	.	.	.	.	.	.	.	.	.	.	.	.	4r	.	.	.
.	.	(8E-</L 8G<	.	.	.	.	.	.	.	.	.	.	.	.	.	.	.	.	.	.
8r	.	8G</J) 8B-<	.	.	.	.	.	.	.	.	.	.	.	.	.	.	8r	.	.	.
!!LO:LB:g=original	!	!	!	!	!	!	!	!	!	!	!	!	!	!	!	!	!	!	!	!
=106	=106	=106	=106	=106	=106	=106	=106	=106	=106	=106	=106	=106	=106	=106	=106	=106	=106	=106	=106	=106
4EE-\	.	8r	.	.	2.ryy	.	.	.	2.ryy	.	.	.	2.ryy	.	.	.	2.r	.	.	.
.	.	(8E-</L 8G<	.	.	.	.	.	.	.	.	.	.	.	.	.	.	.	.	.	.
8r	.	8G</J) 8B-<	.	.	.	.	.	.	.	.	.	.	.	.	.	.	.	.	.	.
4E-\	.	8r	.	.	.	.	.	.	.	.	.	.	.	.	.	.	.	.	.	.
.	.	(8E-</L 8G<	.	.	.	.	.	.	.	.	.	.	.	.	.	.	.	.	.	.
8r	.	8G</J) 8B-<	.	.	.	.	.	.	.	.	.	.	.	.	.	.	.	.	.	.
=107	=107	=107	=107	=107	=107	=107	=107	=107	=107	=107	=107	=107	=107	=107	=107	=107	=107	=107	=107	=107
4EE-/	.	8r	.	.	2.ryy	.	.	.	2.ryy	.	.	.	2.ryy	.	.	.	(4e-/	Tu-	Il	.
.	.	(8E-/L 8G	.	.	.	.	.	.	.	.	.	.	.	.	.	.	.	.	.	.
8r	.	8G/J) 8B-	.	.	.	.	.	.	.	.	.	.	.	.	.	.	8B-/)	.	.	.
!	!	!LO:TX:b:t=cre_scen_do:dur=14e:ext=ud:problem:text with extention lines	!	!	!	!	!	!	!	!	!	!	!	!	!	!	!	!	!	!
4E-\	.	8r	.	<	.	.	.	.	.	.	.	.	.	.	.	.	4B-/	-taj	suo	.
.	.	(8G/L 8B-	.	.	.	.	.	.	.	.	.	.	.	.	.	.	.	.	.	.
8r	.	8e-/J)	.	.	.	.	.	.	.	.	.	.	.	.	.	.	8g/	nie-	de-	.
=108	=108	=108	=108	=108	=108	=108	=108	=108	=108	=108	=108	=108	=108	=108	=108	=108	=108	=108	=108	=108
*^	*	*	*	*	*	*	*	*	*	*	*	*	*	*	*	*	*	*	*	*
(4EE-/ 4E-	4.ryy	.	8r	.	.	2.ryy	.	.	.	2.ryy	.	.	.	2.ryy	.	.	.	[4.g/	-szczę-	-stin	.
.	.	.	(8G/L 8B-	.	.	.	.	.	.	.	.	.	.	.	.	.	.	.	.	.	.
8BB-/)	.	.	8e-/J)	.	.	.	.	.	.	.	.	.	.	.	.	.	.	.	.	.	.
8EE-/ 8BB-	4ryy	.	8r	.	.	.	.	.	.	.	.	.	.	.	.	.	.	4g/]	.	.	.
8r	.	.	(8G/L 8B-	.	.	.	.	.	.	.	.	.	.	.	.	.	.	.	.	.	.
8G/	8r	.	8e-/J)	.	.	.	.	.	.	.	.	.	.	.	.	.	.	8g/	-ście	di-	.
=109	=109	=109	=109	=109	=109	=109	=109	=109	=109	=109	=109	=109	=109	=109	=109	=109	=109	=109	=109	=109	=109
2.G/	4E-\	.	8r	.	.	2.ryy	.	.	.	2.ryy	.	.	.	2.ryy	.	.	.	(4g/	je-	-vi-	.
.	.	.	(8B-/L	.	.	.	.	.	.	.	.	.	.	.	.	.	.	.	.	.	.
.	8r	.	8e-/J) 8g	.	.	.	.	.	.	.	.	.	.	.	.	.	.	8e-/)	.	.	.
.	4E-\	.	8r	.	.	.	.	.	.	.	.	.	.	.	.	.	.	4e-/	-go	-der	.
.	.	.	(8B-/L	.	[[	.	.	.	.	.	.	.	.	.	.	.	.	.	.	.	.
.	8r	.	8e-/J) 8g	.	.	.	.	.	.	.	.	.	.	.	.	.	.	8b-\	po-	vo-	.
*v	*v	*	*	*	*	*	*	*	*	*	*	*	*	*	*	*	*	*	*	*	*
=110	=110	=110	=110	=110	=110	=110	=110	=110	=110	=110	=110	=110	=110	=110	=110	=110	=110	=110	=110	=110
4E-\ 4G	.	8r	.	.	2.ryy	.	.	.	2.ryy	.	.	.	2.ryy	.	.	.	4.b-\	-dzie-	-gl'i-	.
.	.	(8e-/L	.	.	.	.	.	.	.	.	.	.	.	.	.	.	.	.	.	.
8E-\	.	8g/J) 8b-	.	.	.	.	.	.	.	.	.	.	.	.	.	.	.	.	.	.
8E-\	.	8r	.	.	.	.	.	.	.	.	.	.	.	.	.	.	8b-\	-lę	-o,	.
!	!	!LO:TX:b:t=sempre cre_scen_do:dur=9e:ext=ud:problem:text with extention lines	!	!	!	!	!	!	!	!	!	!	!	!	!	!	!	!	!	!
8r	.	(8e-/L	.	<	.	.	.	.	.	.	.	.	.	.	.	.	8r	.	.	.
8B-\	.	8g/J) 8b-	.	.	.	.	.	.	.	.	.	.	.	.	.	.	8b-\	Tam	E	.
=111	=111	=111	=111	=111	=111	=111	=111	=111	=111	=111	=111	=111	=111	=111	=111	=111	=111	=111	=111	=111
4.E-\ 4.B-	.	8r	.	.	2.ryy	.	.	.	2.ryy	.	.	.	2.ryy	.	.	.	(4b-\	wiecz-	nel-	.
.	.	(8e-/L 8g	.	.	.	.	.	.	.	.	.	.	.	.	.	.	.	.	.	.
.	.	8g/J) 8b-	.	.	.	.	.	.	.	.	.	.	.	.	.	.	8g/)	.	-l'e-	.
8E-\L 8e-	.	8r	.	.	.	.	.	.	.	.	.	.	.	.	.	.	4g/	-ność	-ter-	.
8BB-\ 8B-	.	(8e-/L 8g	.	.	.	.	.	.	.	.	.	.	.	.	.	.	.	.	.	.
8GG\J 8G	.	8g/J) 8b-	.	.	.	.	.	.	.	.	.	.	.	.	.	.	8ee-\	po	-ni-	.
!!LO:LB:g=original	!	!	!	!	!	!	!	!	!	!	!	!	!	!	!	!	!	!	!	!
=112	=112	=112	=112	=112	=112	=112	=112	=112	=112	=112	=112	=112	=112	=112	=112	=112	=112	=112	=112	=112
8EE-/L 8E-	.	8g/L 8ee-	.	[[	2.ryy	.	.	.	2.ryy	.	.	.	2.ryy	.	.	.	(4ee-\	łą-	-ta	.
8DD/ 8D	.	(>8e-/ 8g	.	.	.	.	.	.	.	.	.	.	.	.	.	.	.	.	.	.
8DD-X/J 8D-X	.	8g/J) 8b-	.	.	.	.	.	.	.	.	.	.	.	.	.	.	8b-\)	.	con	.
8CC/L 8C	.	8r	.	.	.	.	.	.	.	.	.	.	.	.	.	.	(4b-\	-czy	lui	.
8CC-X/ 8C-X	.	(8g\L 8b-	.	.	.	.	.	.	.	.	.	.	.	.	.	.	.	.	.	.
8BBB-/J 8BB-	.	8b-\J) 8dd-X 8gg	.	.	.	.	.	.	.	.	.	.	.	.	.	.	8ee-\)	.	flu-	.
=113	=113	=113	=113	=113	=113	=113	=113	=113	=113	=113	=113	=113	=113	=113	=113	=113	=113	=113	=113	=113
*ped	*	*	*	*	*	*	*	*	*	*	*	*	*	*	*	*	*	*	*	*
N(>8AAA/L	.	2.an\ 2.cc#X 2.een 2.gg	.	ppp	2.ryy	.	.	.	2.ryy	.	.	.	2.ryy	.	.	.	[2.een\	nas!	-ir!	.
8EEn/	.	.	.	.	.	.	.	.	.	.	.	.	.	.	.	.	.	.	.	.
8AAn/J	.	.	.	.	.	.	.	.	.	.	.	.	.	.	.	.	.	.	.	.
8C#X/L	.	.	.	.	.	.	.	.	.	.	.	.	.	.	.	.	.	.	.	.
8En/	.	.	.	.	.	.	.	.	.	.	.	.	.	.	.	.	.	.	.	.
8G/J	.	.	.	.	.	.	.	.	.	.	.	.	.	.	.	.	.	.	.	.
=114	=114	=114	=114	=114	=114	=114	=114	=114	=114	=114	=114	=114	=114	=114	=114	=114	=114	=114	=114	=114
2.r	.	8An/L	.	.	2.ryy	.	.	.	2.ryy	.	.	.	2.ryy	.	.	.	8ee\]	.	.	.
.	.	8c#X/	.	.	.	.	.	.	.	.	.	.	.	.	.	.	8ryy	.	.	.
.	.	8en/J	.	.	.	.	.	.	.	.	.	.	.	.	.	.	8r	.	.	.
.	.	8g\L	.	.	.	.	.	.	.	.	.	.	.	.	.	.	4r	.	.	.
.	.	8an\	.	.	.	.	.	.	.	.	.	.	.	.	.	.	.	.	.	.
.	.	8een\JN)	.	.	.	.	.	.	.	.	.	.	.	.	.	.	8r	.	.	.
*clefG2	*	*	*	*	*	*	*	*	*	*	*	*	*	*	*	*	*	*	*	*
=115	=115	=115	=115	=115	=115	=115	=115	=115	=115	=115	=115	=115	=115	=115	=115	=115	=115	=115	=115	=115
!LO:TX:a:t=Fga.	!	!LO:TX:a:t=V_ni e Fl.	!	!	!	!	!	!	!	!	!	!	!	!	!	!	!	!	!	!
[2.en/ [2.g	.	([4.een\ [4.gg	.	.	2.ryy	.	.	.	2.ryy	.	.	.	2.ryy	.	.	.	2.r	.	.	.
.	.	4ee\] 4gg]	.	.	.	.	.	.	.	.	.	.	.	.	.	.	.	.	.	.
.	.	8cc#X\) 8ee	.	.	.	.	.	.	.	.	.	.	.	.	.	.	.	.	.	.
=116	=116	=116	=116	=116	=116	=116	=116	=116	=116	=116	=116	=116	=116	=116	=116	=116	=116	=116	=116	=116
2.e/_ 2.g_	.	([4.een\ [4.gg	.	.	2.ryy	.	.	.	2.ryy	.	.	.	2.ryy	.	.	.	2.r	.	.	.
.	.	4ee\] 4gg]	.	.	.	.	.	.	.	.	.	.	.	.	.	.	.	.	.	.
.	.	8cc#X\) 8ee	.	.	.	.	.	.	.	.	.	.	.	.	.	.	.	.	.	.
=117	=117	=117	=117	=117	=117	=117	=117	=117	=117	=117	=117	=117	=117	=117	=117	=117	=117	=117	=117	=117
4.e/_ 4.g_	.	((4een^\ 4gg	.	.	2.ryy	.	.	.	2.ryy	.	.	.	2.ryy	.	.	.	2.r	.	.	.
.	.	8cc#X\)) 8ee	.	.	.	.	.	.	.	.	.	.	.	.	.	.	.	.	.	.
4e/] 4g]	.	((4cc#^\ 4ee	.	.	.	.	.	.	.	.	.	.	.	.	.	.	.	.	.	.
*clefF4	*	*Xped	*	*	*	*	*	*	*	*	*	*	*	*	*	*	*	*	*	*
8r	.	8an/)) 8cc#	.	.	.	.	.	.	.	.	.	.	.	.	.	.	.	.	.	.
!!LO:LB:g=original	!	!	!	!	!	!	!	!	!	!	!	!	!	!	!	!	!	!	!	!
=118	=118	=118	=118	=118	=118	=118	=118	=118	=118	=118	=118	=118	=118	=118	=118	=118	=118	=118	=118	=118
!	!	!	!	!	!	!	!	!	!LO:TX:b:t=BRAMINKI.\nBRAMINE.	!	!	!	!LO:TX:a:i:t=SOLO	!	!	!	!	!	!	!
2.r	.	((4an^>/ 4cc#X	.	.	2.r	.	.	.	2.r	.	.	.	2.r	.	.	.	2.ryy	.	.	.
.	.	8g/)) 8bn	.	.	.	.	.	.	.	.	.	.	.	.	.	.	.	.	.	.
.	.	4en/ 4g	.	.	.	.	.	.	.	.	.	.	.	.	.	.	.	.	.	.
.	.	8g/ 8b	.	.	.	.	.	.	.	.	.	.	.	.	.	.	.	.	.	.
=119	=119	=119	=119	=119	=119	=119	=119	=119	=119	=119	=119	=119	=119	=119	=119	=119	=119	=119	=119	=119
2.r	.	((4an^/ 4cc#X	.	.	2.r	.	.	.	2.r	.	.	.	2.r	.	.	.	2.ryy	.	.	.
.	.	8g/)) 8bn	.	.	.	.	.	.	.	.	.	.	.	.	.	.	.	.	.	.
.	.	4en/ 4g	.	.	.	.	.	.	.	.	.	.	.	.	.	.	.	.	.	.
.	.	8g/ 8b	.	.	.	.	.	.	.	.	.	.	.	.	.	.	.	.	.	.
=120	=120	=120	=120	=120	=120	=120	=120	=120	=120	=120	=120	=120	=120	=120	=120	=120	=120	=120	=120	=120
2.r	.	((4bn\ 4dd	.	.	4r	.	.	.	4r	.	.	.	4r	.	.	.	2.ryy	.	.	.
.	.	8an/)) 8cc#X	.	.	8r	.	.	.	8r	.	.	.	8r	.	.	.	.	.	.	.
.	.	((4a/ 4cc#	.	.	4r	.	.	.	4r	.	.	.	4r	.	.	.	.	.	.	.
.	.	8gn/)) 8bn	.	.	8Bn/	.	.	.	8bn\	Dziel	Ac-	.	8bn\	Dziel	Ac-	.	.	.	.	.
=121||	=121||	=121||	=121||	=121||	=121||	=121||	=121||	=121||	=121||	=121||	=121||	=121||	=121||	=121||	=121||	=121||	=121||	=121||	=121||	=121||
*k[f#c#g#d#a#]	*	*k[f#c#g#d#a#]	*	*	*k[f#c#g#d#a#]	*	*	*	*k[f#c#g#d#a#]	*	*	*	*k[f#c#g#d#a#]	*	*	*	*yyk[f#c#g#d#a#]	*	*	*
*	*	*^	*	*	*	*	*	*	*	*	*	*	*	*	*	*	*	*	*	*
8FF#/	.	((>4e/ 4gn 4b	4.c#\	.	p	4e/	.	.	.	4gn/	od-	-co-	.	4b\	od-	-co-	.	2.ryy	.	.	.
!LO:TX:b:i:t=sempre stacc.	!	!	!	!	!	!	!	!	!	!	!	!	!	!	!	!	!	!	!	!	!
8C#'\L	.	.	.	.	.	.	.	.	.	.	.	.	.	.	.	.	.	.	.	.	.
8F#'\J	.	8f#/)) 8a#	.	.	.	8c#/	.	.	.	8f#/	-głos	-gli i	.	8a#/	-głos	-gli i	.	.	.	.	.
8c#'\L	.	8f#/L 8a#	4.ryy	.	.	4c#/	.	.	.	8f#/L	u-	no-	.	8a#/L	u-	no-	.	.	.	.	.
8B'\	.	8e#X/ 8g#X	.	.	.	.	.	.	.	8e#X/J	.	.	.	8g#/J	.	.	.	.	.	.	.
8A#'\J	.	8en/J 8f#	.	.	.	8f#/	.	.	.	8en/	-wiel-	-stri	.	8f#/	-wiel-	-stri	.	.	.	.	.
=122	=122	=122	=122	=122	=122	=122	=122	=122	=122	=122	=122	=122	=122	=122	=122	=122	=122	=122	=122	=122	=122
8FF#/	.	[4.dd#/	(4d#\	.	.	(4f#/	.	.	.	(4d#/	-bie-	vo-	.	[4.dd#\	-bie-	vo-	.	2.ryy	.	.	.
8D#'\L	.	.	.	.	.	.	.	.	.	.	.	.	.	.	.	.	.	.	.	.	.
8F#'\J	.	.	8b\)	.	.	8d#/)	.	.	.	8f#/)	.	.	.	.	.	.	.	.	.	.	.
8B'\L	.	8dd#/]	8f#\	.	.	8d#/	.	.	.	8f#/	-nia	-ti	.	4dd#\]	.	.	.	.	.	.	.
8D#'\	.	8r	4ryy	.	.	8r	.	.	.	8r	.	.	.	.	.	.	.	.	.	.	.
8F#'\J	.	8d#/ 8b	.	.	.	8d#/	.	.	.	8f#/	Co	fer-	.	8b\	-nia	-ti	.	.	.	.	.
*	*	*v	*v	*	*	*	*	*	*	*	*	*	*	*	*	*	*	*	*	*	*
!!LO:PB:g=original	!	!	!	!	!	!	!	!	!	!	!	!	!	!	!	!	!	!	!	!
=123	=123	=123	=123	=123	=123	=123	=123	=123	=123	=123	=123	=123	=123	=123	=123	=123	=123	=123	=123	=123
8FF#/	.	(>8c#/L 8e 8b	.	.	4.c#/	.	.	.	4.e/	w nim	-ven-	.	8b/L	Co	fer-	.	2.ryy	.	.	.
8C#'\L	.	8a#/	.	.	.	.	.	.	.	.	.	.	8a#/J	.	.	.	.	.	.	.
8F#'\J	.	8e/J) 8b	.	.	.	.	.	.	.	.	.	.	8b\	w nim	-vi-	.	.	.	.	.
8c#'\L	.	(>8e/L 8a#	.	.	4c#/	.	.	.	4e/	za-	-ti e	.	8a#/L	za-	-di e	.	.	.	.	.
8B'\	.	8g#/)	.	.	.	.	.	.	.	.	.	.	8g#/J	.	.	.	.	.	.	.
8A#'\J	.	8e/J 8f#	.	.	8c#/	.	.	.	8e/	-pał	sin-	.	8f#/	-pał	sin-	.	.	.	.	.
=124	=124	=124	=124	=124	=124	=124	=124	=124	=124	=124	=124	=124	=124	=124	=124	=124	=124	=124	=124	=124
8FF#/	.	4d#/ 4dd#	.	.	4.B/	.	.	.	(4d#/	wspie-	-ce-	.	4.dd#\	wspie-	-ce-	.	2.ryy	.	.	.
8D#'\L	.	.	.	.	.	.	.	.	.	.	.	.	.	.	.	.	.	.	.	.
8F#'\J	.	8d#'>/ 8f#	.	.	.	.	.	.	8b\)	.	.	.	.	.	.	.	.	.	.	.
8B'\L	.	8d#/ 8b	.	.	8d#/	.	.	.	8f#/	-ra	-ri.	.	8b\	-ra	-ri.	.	.	.	.	.
8D#'\	.	8r	.	.	8r	.	.	.	8r	.	.	.	8r	.	.	.	.	.	.	.
8F#'\J	.	8f#/ 8b 8dd#	.	.	8d#/	.	.	.	8b\	Cześć,	Da'	.	8dd#\	Cześć,	Da'	.	.	.	.	.
=125	=125	=125	=125	=125	=125	=125	=125	=125	=125	=125	=125	=125	=125	=125	=125	=125	=125	=125	=125	=125
8FF#/	.	4f#\ 4a# 4ff#	.	.	4c#/	.	.	.	4a#/	sła-	mal	.	4ff#\	sła-	mal	.	2.ryy	.	.	.
8F#\L	.	.	.	.	.	.	.	.	.	.	.	.	.	.	.	.	.	.	.	.
8A#\J	.	8f#/ 8a# 8cc#	.	.	8f#/	.	.	.	8a#/	-wę	pen-	.	8cc#\	-wę	pen-	.	.	.	.	.
8c#\L	.	(8f#/L 8a# 8cc#	.	.	4f#/	.	.	.	4a#/	o-	-sier	.	8cc#\L	o-	-sier	.	.	.	.	.
8A#\	.	8ee#X/)	.	.	.	.	.	.	.	.	.	.	8ee#X\J	.	.	.	.	.	.	.
8F#\J	.	8f#/J 8a# 8dd#	.	.	8f#/	.	.	.	8a#/	-pro-	ti	.	8dd#\	-pro-	ti	.	.	.	.	.
=126	=126	=126	=126	=126	=126	=126	=126	=126	=126	=126	=126	=126	=126	=126	=126	=126	=126	=126	=126	=126
8C#/	.	8e#X/ 8cc#	.	.	4e#X/	.	.	.	4g#/	-mie-	scuo-	.	4cc#\	-mie-	scuo-	.	2.ryy	.	.	.
8G#\L	.	8r	.	.	.	.	.	.	.	.	.	.	.	.	.	.	.	.	.	.
8B\J	.	8e#/ 8g#	.	.	8e#/	.	.	.	8g#/	-nia	-ti	.	8g#/	-nia	-ti	.	.	.	.	.
8c#\L	.	8e#/ 8g#	.	.	4e#/	.	.	.	4g#/	pas-	in	.	4g#/	pas-	in	.	.	.	.	.
8B\	.	8r	.	.	.	.	.	.	.	.	.	.	.	.	.	.	.	.	.	.
8G#\J	.	8e#/ 8b	.	.	8e#/	.	.	.	8g#/	-mo	tal	.	8b\	-mo	tal	.	.	.	.	.
=127	=127	=127	=127	=127	=127	=127	=127	=127	=127	=127	=127	=127	=127	=127	=127	=127	=127	=127	=127	=127
8FF#/	.	(8en/L 8a#	.	.	4en/	.	.	.	8f#/L	je-	gior-	.	8a#/L	je-	gior-	.	2.ryy	.	.	.
8B\L	.	8g#/)	.	.	.	.	.	.	8g#/J	.	.	.	8g#/J	.	.	.	.	.	.	.
8A#\J	.	8e/J 8f#	.	.	8e/	.	.	.	8f#/	-go	-no	.	8f#/	-go	-no	.	.	.	.	.
8G#\L	.	4f#/ 4dd#	.	.	4f#/	.	.	.	4f#/	mło-	me-	.	4dd#\	mło-	me-	.	.	.	.	.
8A#\	.	.	.	.	.	.	.	.	.	.	.	.	.	.	.	.	.	.	.	.
8F#\J	.	8e/ 8cc#	.	.	8e/	.	.	.	8f#/	-dych	-mo-	.	8cc#\	-dych	-mo-	.	.	.	.	.
!!LO:LB:g=original	!	!	!	!	!	!	!	!	!	!	!	!	!	!	!	!	!	!	!	!
=128	=128	=128	=128	=128	=128	=128	=128	=128	=128	=128	=128	=128	=128	=128	=128	=128	=128	=128	=128	=128
(8BB\L	.	8d#/ 8b	.	.	8d#/	.	.	.	8f#/	lat.	-ral.	.	8b\	lat.	-ral.	.	2.ryy	.	.	.
8D#\	.	8r	.	.	8r	.	.	.	8r	.	.	.	8r	.	.	.	.	.	.	.
!	!	!	!	!	!	!	!	!LO:DY:a	!	!	!	!LO:DY:a	!	!	!	!	!	!	!	!
8F#\J)	.	8f#\ 8ff#	.	.	8d#/	.	.	pp	8f#/	Ach	Sul	pp	8f#/	Ach	Sul	.	.	.	.	.
(8FF#/L	.	4f#\ 4b 4dd# 4ff#	.	.	8d#/	.	.	.	8f#/	u-	lab-	.	4f#/	u-	lab-	.	.	.	.	.
8BB/ 8D#	.	.	.	.	8r	.	.	.	8r	.	.	.	.	.	.	.	.	.	.	.
8F#/J)	.	8g#\ 8gg#	.	.	8d#/	.	.	.	8f#/	-śmiech	-bro	.	8g#/	-śmiech	-bro	.	.	.	.	.
=129	=129	=129	=129	=129	=129	=129	=129	=129	=129	=129	=129	=129	=129	=129	=129	=129	=129	=129	=129	=129
(8BB\L	.	4a#\ 4dd# 4ff# 4aa#	.	<	8d#/	.	.	.	8f#/	zwij	tuo	.	4a#/	zwij	tuo	.	2.ryy	.	.	.
8D#\	.	.	.	.	8r	.	.	.	8r	.	.	.	.	.	.	.	.	.	.	.
8F#\J)	.	8b\ 8bb	.	.	8d#/	.	.	.	8f#/	na	com-	.	8b\	na	com-	.	.	.	.	.
(8FF#/L	.	4cc#\ 4ccc#	.	.	8d#/	.	.	.	8f#/	u-	-pa-	.	4cc#\	u-	-pa-	.	.	.	.	.
8BB/ 8D#	.	.	.	.	8r	.	.	.	8r	.	.	.	.	.	.	.	.	.	.	.
8F#/J)	.	8dd#\ 8ddd#	.	[[	8d#/	.	.	.	8f#/	-sta	-ja an-	.	8dd#\	-sta	-ja an-	.	.	.	.	.
=130	=130	=130	=130	=130	=130	=130	=130	=130	=130	=130	=130	=130	=130	=130	=130	=130	=130	=130	=130	=130
(8C#\L	.	4ee\ 4ff# 4eee	.	>	8c#/	.	.	.	8f#/	swe,	-cor	.	4ee\	swe,	-cor	.	2.ryy	.	.	.
8E\	.	.	.	.	8r	.	.	.	8r	.	.	.	.	.	.	.	.	.	.	.
8F#\J)	.	8dd#\ 8ddd#	.	.	8f#/	.	.	.	8f#/	Nim	il	.	8dd#\	Nim	il	.	.	.	.	.
(8DD#/L	.	4cc#\ 4ccc#	.	.	8e/	.	.	.	8f#/	wi-	tuo	.	4cc#\	wi-	tuo	.	.	.	.	.
8C#/ 8E	.	.	.	.	8r	.	.	.	8r	.	.	.	.	.	.	.	.	.	.	.
8F#/J)	.	8b#X\ 8bb#X	.	]]	8e/	.	.	.	8f#/	-taj	cor-	.	8b#X\	-taj	sor-	.	.	.	.	.
=131	=131	=131	=131	=131	=131	=131	=131	=131	=131	=131	=131	=131	=131	=131	=131	=131	=131	=131	=131	=131
(8AA#\L	.	8cc#\ 8ee 8ff# 8ccc#	.	.	8e/	.	.	.	8f#/	ży-	-ri-	.	4cc#\	ży-	-ri-	.	2.ryy	.	.	.
8C#\ 8E	.	8r	.	.	8r	.	.	.	8r	.	.	.	.	.	.	.	.	.	.	.
8F#\J)	.	8g#\ 8gg#	.	.	8e/	.	.	.	8g#/	-cia	-so in-	.	8g#/	-cia	-so in-	.	.	.	.	.
(8FF#/L	.	4a#\ 4ee 4aa#	.	.	4c#/	.	.	.	4f#/	twe-	-can-	.	4a#/	twe-	-can-	.	.	.	.	.
8C#/	.	.	.	.	.	.	.	.	.	.	.	.	.	.	.	.	.	.	.	.
8F#/J)	.	8f#\ 8ff#	.	.	8f#/	.	.	.	8f#/	-go	-ta-	.	8f#/	-go	-ta-	.	.	.	.	.
=132	=132	=132	=132	=132	=132	=132	=132	=132	=132	=132	=132	=132	=132	=132	=132	=132	=132	=132	=132	=132
(8BB\L	.	8dd#\ 8ff# 8bb 8ddd#	.	.	8B/	.	.	.	8d#/	kwiat,	-tor.	.	8f#/	kwiat,	-tor.	.	2.ryy	.	.	.
8D#\	.	8r	.	.	8r	.	.	.	8r	.	.	.	8r	.	.	.	.	.	.	.
8F#\J)	.	8f#\ 8ff#	.	.	8d#/	.	.	.	8f#/	ach	Sul	.	8f#/	ach	Sul	.	.	.	.	.
(8FF#/L	.	4f#\ 4b 4dd# 4ff#	.	.	8d#/	.	.	.	8f#/	u-	lab-	.	4f#/	u-	lab-	.	.	.	.	.
8BB/ 8D#	.	.	.	.	8r	.	.	.	8r	.	.	.	.	.	.	.	.	.	.	.
8F#/J)	.	8g#\ 8gg#	.	.	8d#/	.	.	.	8f#/	-śmiech	-bro	.	8g#/	-śmiech	-bro	.	.	.	.	.
!!LO:LB:g=original	!	!	!	!	!	!	!	!	!	!	!	!	!	!	!	!	!	!	!	!
=133	=133	=133	=133	=133	=133	=133	=133	=133	=133	=133	=133	=133	=133	=133	=133	=133	=133	=133	=133	=133
(8BB\L	.	4a#\ 4dd# 4ff# 4aa#	.	<	8d#/	.	.	.	8f#/	zwij	tuo	.	4a#/	zwij	tuo	.	2.ryy	.	.	.
8D#\	.	.	.	.	8r	.	.	.	8r	.	.	.	.	.	.	.	.	.	.	.
8F#\J)	.	8b\ 8bb	.	.	8d#/	.	.	.	8f#/	na	com-	.	8b\	na	com-	.	.	.	.	.
(8FF#/L	.	4cc#\ 4ccc#	.	.	8d#/	.	.	.	8f#/	u-	-pa-	.	4cc#\	u-	-pa-	.	.	.	.	.
8BB/ 8D#	.	.	.	.	8r	.	.	.	8r	.	.	.	.	.	.	.	.	.	.	.
8F#/J)	.	8dd#\ 8ddd#	.	[[	8d#/	.	.	.	8f#/	-sta	-ja an-	.	8dd#\	-sta	-ja an-	.	.	.	.	.
=134	=134	=134	=134	=134	=134	=134	=134	=134	=134	=134	=134	=134	=134	=134	=134	=134	=134	=134	=134	=134
(8C#\L	.	4ee\ 4ff# 4eee	.	>	8c#/	.	.	.	8f#/	swe,	-cor	.	4ee\	swe,	-cor	.	2.ryy	.	.	.
8E\	.	.	.	.	8r	.	.	.	8r	.	.	.	.	.	.	.	.	.	.	.
8F#\J)	.	8dd#\ 8ddd#	.	.	8f#/	.	.	.	8f#/	W tym	il	.	8dd#\	W tym	il	.	.	.	.	.
(8FF#/L	.	4cc#\ 4ccc#	.	.	8e/	.	.	.	8f#/	bło-	tuo	.	4cc#\	bło-	tuo	.	.	.	.	.
8C#/ 8E	.	.	.	.	8r	.	.	.	8r	.	.	.	.	.	.	.	.	.	.	.
8F#/J)	.	8b#X\ 8bb#X	.	]]	8e/	.	.	.	8f#/	-gim	sor-	.	8b#X\	-gim	sor-	.	.	.	.	.
=135	=135	=135	=135	=135	=135	=135	=135	=135	=135	=135	=135	=135	=135	=135	=135	=135	=135	=135	=135	=135
(8AA#/L	.	8cc#\ 8ee 8ff# 8ccc#	.	.	8e/	.	.	.	8f#/	dniu	-ri-	.	4cc#\	dniu	-ri-	.	2.ryy	.	.	.
8C#/ 8E	.	8r	.	.	8r	.	.	.	8r	.	.	.	.	.	.	.	.	.	.	.
8F#/J)	.	8g#\ 8gg#	.	.	8c#/	.	.	.	8e/	po-	-so in-	.	8g#/	po-	-so in-	.	.	.	.	.
(8FF#/L	.	4a#\ 4ee 4aa#	.	.	4c#/	.	.	.	4e/	-wi-	-can-	.	4a#/	-wi-	-can-	.	.	.	.	.
8C#/ 8E	.	.	.	.	.	.	.	.	.	.	.	.	.	.	.	.	.	.	.	.
8F#/J)	.	8f#\ 8ff#	.	.	8c#/	.	.	.	8e/	-ta	-ta-	.	8f#/	-ta	-ta-	.	.	.	.	.
=136	=136	=136	=136	=136	=136	=136	=136	=136	=136	=136	=136	=136	=136	=136	=136	=136	=136	=136	=136	=136
!LO:TX:t=P:problem: 4x staccato	!	!	!	!	!	!	!	!	!	!	!	!	!	!	!	!	!	!	!	!
4.BB'\ 4.B	.	8dd#\ 8ff# 8ddd#	.	f	8B/	.	.	.	8d#/	cię	-tor.	.	8dd#\	cię	-tor.	.	2.ryy	.	.	.
.	.	8r	.	.	8r	.	.	.	8r	.	.	.	8r	.	.	.	.	.	.	.
!	!	!	!	!	!	!	!	!	!	!	!	!LO:DY:a	!	!	!	!LO:DY:a	!	!	!	!
.	.	8dd#\ 8ddd#	.	.	8b\	.	.	.	8b\	Ro-	Ti	f	8dd#\	Ro-	Ti	f	.	.	.	.
4.BB^\ 4.B	.	4ff#\ 4ddd# 4fff#	.	.	4b\	.	.	.	4an/	-sko-	do-	.	4ff#\	-sko-	do-	.	.	.	.	.
.	.	8ee#X\ 8dddn 8eee#X	.	.	8B/	.	.	.	8g#/	-szy	-ni il	.	8ee#X\	-szy	-ni il	.	.	.	.	.
=137	=137	=137	=137	=137	=137	=137	=137	=137	=137	=137	=137	=137	=137	=137	=137	=137	=137	=137	=137	=137
!LO:TX:t=P:problem: 4x staccato	!	!	!	!	!	!	!	!	!	!	!	!	!	!	!	!	!	!	!	!
4.BB'\ 4.B	.	8cc#\ 8ee#X 8gg# 8ccc#	.	.	8B/	.	.	.	4g#/	świat	ciel	.	8cc#\	świat	ciel	.	2.ryy	.	.	.
.	.	8r	.	.	8r	.	.	.	.	.	.	.	8r	.	.	.	.	.	.	.
.	.	8cc#\ 8ee# 8gg# 8ccc#	.	.	8b\	.	.	.	8g#/	mi-	fe-	.	8cc#\	mi-	fe-	.	.	.	.	.
4.BB^\ 4.B	.	4een\ 4ggn 4eeen	.	.	4b\	.	.	.	4gn/	-ło-	-li-	.	4een\	-ło-	-li-	.	.	.	.	.
.	.	(8dd#\ 8ff# 8ddd#	.	.	8B/	.	.	.	8g/	-ści	-ci	.	8dd#\	-ści	-ci.-	.	.	.	.	.
!!LO:PB:g=original	!	!	!	!	!	!	!	!	!	!	!	!	!	!	!	!	!	!	!	!
=138	=138	=138	=138	=138	=138	=138	=138	=138	=138	=138	=138	=138	=138	=138	=138	=138	=138	=138	=138	=138
4.BB\ 4.B	.	8b\) 8dd# 8bb	.	.	8B/	.	.	.	8f#/	świat.	ta,	.	8b\	świat.	-ta,	.	2.ryy	.	.	.
.	.	8r	.	.	8r	.	.	.	8r	.	.	.	8r	.	.	.	.	.	.	.
!	!	!	!	!	!	!	!	!LO:DY:a	!	!	!	!LO:DY:a	!	!	!	!LO:DY:a	!	!	!	!
.	.	8b\ 8dd# 8bb	.	p	8B/	.	.	p	8f#/	ro-	d'a-	p	8b\	ro-	d'a-	p	.	.	.	.
4.BB\ 4.Dn 4.Gn	.	4ddn^<\ 4ggn 4dddn	.	.	4B/	.	.	.	4gn/	-sko-	-mor	.	4ddn\	-sko-	-mor	.	.	.	.	.
.	.	((8cc#\ 8ccc#	.	.	8c#/	.	.	.	8g/	-szy	fra	.	8cc#\	-szy	fra	.	.	.	.	.
=139	=139	=139	=139	=139	=139	=139	=139	=139	=139	=139	=139	=139	=139	=139	=139	=139	=139	=139	=139	=139
4.AAn\ 4.Gn	.	8ee\)) 8eee	.	.	4c#/	.	.	.	4gn/	świat,	dol-	.	4ee\	świat,	dol-	.	2.ryy	.	.	.
.	.	8r	.	.	.	.	.	.	.	.	.	.	.	.	.	.	.	.	.	.
.	.	8an\ 8aan	.	.	8e/	.	.	.	8g/	mi-	-ci	.	8an/	mi-	-ci	.	.	.	.	.
4.Dn\ 4.F#	.	((4ccn\ 4cccn	.	.	4dn/	.	.	.	4f#/	-ło-	vo-	.	4ccn\	-ło-	vo-	.	.	.	.	.
.	.	8b\)) 8bb	.	.	8d/	.	.	.	8g/	-ści	-lut-	.	8b\	-ści	-lut-	.	.	.	.	.
=140	=140	=140	=140	=140	=140	=140	=140	=140	=140	=140	=140	=140	=140	=140	=140	=140	=140	=140	=140	=140
8GGn/ 8Gn	.	4b\ 4bb	.	.	4dn/	.	.	.	4gn/	świat.	-ta.	.	4b\	świat.	-ta.	.	2.ryy	.	.	.
8r	.	.	.	.	.	.	.	.	.	.	.	.	.	.	.	.	.	.	.	.
8GG/ 8G	.	8gn\ 8ggn	.	f	8r	.	.	.	8r	.	.	.	8r	.	.	.	.	.	.	.
!	!	!	!	!	!	!	!	!	!	!	!	!LO:DY:a	!	!	!	!LO:DY:a	!	!	!	!
4BB\ 4B	.	4g\ 4gg	.	.	4r	.	.	.	4g/	U-	Del-	f	4gn/	U-	Del-	f	.	.	.	.
8AAn\ 8An	.	8an\ 8aan	.	.	8r	.	.	.	8an/	-śmiech	-la	.	8an/	-śmiech	-la	.	.	.	.	.
=141	=141	=141	=141	=141	=141	=141	=141	=141	=141	=141	=141	=141	=141	=141	=141	=141	=141	=141	=141	=141
4GGn/ 4Gn	.	4b\ 4bb	.	.	2.r	.	.	.	4b\	zwij	vi-	.	4b\	zwij	vi-	.	2.ryy	.	.	.
8FFn/ 8Fn	.	8ccn\ 8cccn	.	.	.	.	.	.	8ccn\	na	-ta	.	8ccn\	na	-ta	.	.	.	.	.
4EE/ 4E	.	4ddn\ 4dddn	.	.	.	.	.	.	4ddn\	u-	sul-	.	4ddn\	u-	sul	.	.	.	.	.
8DDn/ 8Dn	.	8dd#X\ 8ddd#X	.	.	.	.	.	.	8dd#X\	-sta	-cam-	.	8dd#X\	-sta	cam-	.	.	.	.	.
=142	=142	=142	=142	=142	=142	=142	=142	=142	=142	=142	=142	=142	=142	=142	=142	=142	=142	=142	=142	=142
4CCn/ 4Cn	.	4ee\ 4eee	.	.	4r	.	.	.	4ee\	swe	-min	.	8ee\	swe	-min	.	2.ryy	.	.	.
.	.	.	.	.	.	.	.	.	.	.	.	.	8r	.	.	.	.	.	.	.
!	!	!	!	!	!	!	!	!	!	!	!	!LO:HP:a	!	!	!	!LO:HP:a	!	!	!	!
8BBB/ 8BB	.	8ee\ 8ggn 8eee	.	.	8gn/	.	.	.	8ccn\	Nim	ar-	<	8ee\	Nim	ar-	<	.	.	.	.
!	!	!	!	!	!	!	!	!LO:HP:a	!	!	!	!	!	!	!	!	!	!	!	!
4AAAn/ 4AAn	.	4dd#\ 4ddd#	.	.	4g/	.	.	<	4cc\	wi-	-ri-	.	8ee\L	wi-	-ri-	.	.	.	.	.
.	.	.	.	.	.	.	.	.	.	.	.	.	8dd#\J	.	.	.	.	.	.	.
8GGGn/ 8GGn	.	8ee\ 8eee	.	.	8b\	.	.	[[	8cc\	-taj	-da	[[	8ee\	-taj	-da	[[	.	.	.	.
=143	=143	=143	=143	=143	=143	=143	=143	=143	=143	=143	=143	=143	=143	=143	=143	=143	=143	=143	=143	=143
*^	*	*	*	*	*	*	*	*	*	*	*	*	*	*	*	*	*	*	*	*
!	!	!	!	!	!	!	!	!	!	!	!	!	!LO:DY:a	!	!	!	!LO:DY:a	!	!	!	!
!	!	!	!	!	!	!	!	!	!LO:HP:a	!	!	!	!LO:HP:a	!	!	!	!LO:HP:a	!	!	!	!
4FF#/	2.FFF#\	.	[4.ff#^\ [4.aa# [4.fff#	.	sf >	[4.a#X/	.	.	>	[>4.cc#X\	ży-	fau-	sf >	[4.ff#\	ży-	fau-	sf >	2.ryy	.	.	.
8EE/	.	.	.	.	.	.	.	.	.	.	.	.	.	.	.	.	.	.	.	.	.
4DD#/	.	.	4ff#\] 4aa#] 4fff#]	.	.	4a#/]	.	.	]	4cc#\]	.	.	]	4ff#\]	.	.	]	.	.	.	.
8CC#/	.	.	8ee\ 8aa# 8eee	.	]]	8a#/	.	.	.	8f#/	-cia	-sto	.	8ee\	-cia	-sto	.	.	.	.	.
!!LO:LB:g=original	!	!	!	!	!	!	!	!	!	!	!	!	!	!	!	!	!	!	!	!	!
=144	=144	=144	=144	=144	=144	=144	=144	=144	=144	=144	=144	=144	=144	=144	=144	=144	=144	=144	=144	=144	=144
!	!	!	!	!	!	!	!	!	!LO:DY:a	!	!	!	!LO:DY:a	!LO:TX:a:i:t=dol.	!	!	!LO:DY:a	!	!	!	!
8BBB/L	4.ryy	.	4ee\ 4ff# 4eee	.	p	(4b\	.	.	p	(4f#/	kwiat,	fau-	p	(4ee\	kwiat,	fau-	p	2.ryy	.	.	.
8F#/	.	.	.	.	.	.	.	.	.	.	.	.	.	.	.	.	.	.	.	.	.
!	!	!	!LO:TX:b:i:t=dolce	!	!	!	!	!	!	!	!	!	!	!	!	!	!	!	!	!	!
8B/J	.	.	8dd#\ 8ddd#	.	.	8f#/)	.	.	.	8b\)	.	.	.	8dd#\)	.	.	.	.	.	.	.
8D#/L	4.D#\	.	4cc#\ 4ccc#	.	.	4f#/	.	.	.	4cc#\	wi-	-sto	.	4cc#\	wi-	-sto	.	.	.	.	.
8F#/	.	.	.	.	.	.	.	.	.	.	.	.	.	.	.	.	.	.	.	.	.
8B/J	.	.	8b\ 8bb	.	.	8f#/	.	.	.	8b\	-ta	ar-	.	8b\	-ta	ar-	.	.	.	.	.
=145	=145	=145	=145	=145	=145	=145	=145	=145	=145	=145	=145	=145	=145	=145	=145	=145	=145	=145	=145	=145	=145
8E/L	4.E\	.	8a#\L 8aa#	.	<	8f#/L	.	.	.	8a#/L	ten	-ri-	.	8a#/L	ten	-ri-	.	2.ryy	.	.	.
8G#/	.	.	8g#\ 8gg#	.	.	8e/J	.	.	.	8g#/J	.	.	.	8g#/J	.	.	.	.	.	.	.
8B/J	.	.	8a#\J 8aa#	.	.	8e/	.	.	.	8a#/	ro-	-da a	.	8a#/	ro-	-da a	.	.	.	.	.
8D#/L	4.D#\	.	8b\L 8bb	.	.	4f#/	.	.	.	4b\	-sko-	te il	.	8b\L	-sko-	te	.	.	.	.	.
8F#/	.	.	8cc#\ 8ccc#	.	.	.	.	.	.	.	.	.	.	8cc#\J	.	il	.	.	.	.	.
8B/J	.	.	8dd#\J 8ddd#	.	[[	8f#/	.	.	.	8b\	-szny	de-	.	8dd#\	-szny	de-	.	.	.	.	.
=146	=146	=146	=146	=146	=146	=146	=146	=146	=146	=146	=146	=146	=146	=146	=146	=146	=146	=146	=146	=146	=146
8C#/L	4.C#\	.	4ee\ 4eee	.	.	[4.g#/	.	.	.	[4.b\	świat,	-stin	.	[4.ee\	świat,	-stin	.	2.ryy	.	.	.
8E/	.	.	.	.	.	.	.	.	.	.	.	.	.	.	.	.	.	.	.	.	.
8B/J	.	.	8g#\ 8ee 8gg#	.	.	.	.	.	.	.	.	.	.	.	.	.	.	.	.	.	.
8C#/L	4.C#\	.	4g#\ 4ee 4gg#	.	.	4g#/]	.	.	.	4b\]	.	.	.	4ee\]	.	.	.	.	.	.	.
8G#/	.	.	.	.	.	.	.	.	.	.	.	.	.	.	.	.	.	.	.	.	.
8c#/J	.	.	8b\ 8ee 8gg# 8bb	.	.	8e/	.	.	.	8b\	mi-	fra	.	8g#/	mi-	fra	.	.	.	.	.
*v	*v	*	*	*	*	*	*	*	*	*	*	*	*	*	*	*	*	*	*	*	*
=147	=147	=147	=147	=147	=147	=147	=147	=147	=147	=147	=147	=147	=147	=147	=147	=147	=147	=147	=147	=147
8FF#\L	.	4b^\ 4ee 4ggn 4bb	.	.	4e/	.	.	.	4b\	-ło-	vo-	.	4gn/	-ło-	vo-	.	2.ryy	.	.	.
8F#\	.	.	.	.	.	.	.	.	.	.	.	.	.	.	.	.	.	.	.	.
8c#\J	.	8a#X\ 8ff# 8aa#X	.	.	8e/	.	.	.	8a#/	-ści	-lut-	.	8f#/	-ści	-lut-	.	.	.	.	.
(8F#\L	.	(8cc#\L 8ff# 8aa#	.	.	4e/	.	.	.	8a#/L	wi-	-ta	.	8f#/L	wi-	-ta	.	.	.	.	.
8c#\)	.	8ee#X\) 8gg#X	.	.	.	.	.	.	8g#/J	.	.	.	8g#X/J	.	.	.	.	.	.	.
8F#\J	.	8ee#'\J 8ff#	.	.	8e/	.	.	.	8f#/	-taj	d'a-	.	8a#/	-taj	d'a-	.	.	.	.	.
=148	=148	=148	=148	=148	=148	=148	=148	=148	=148	=148	=148	=148	=148	=148	=148	=148	=148	=148	=148	=148
!LO:TX:a:t=Arm.	!	!	!	!	!	!	!	!	!	!	!	!	!	!	!	!	!	!	!	!
(8BB\L	.	4b\ 4dd# 4bb	.	.	(2.d#/	.	.	.	(2.f#/	świat.	-mor.	.	(2.b\	świat.	-mor.	.	2.ryy	.	.	.
8F#\	.	.	.	.	.	.	.	.	.	.	.	.	.	.	.	.	.	.	.	.
8B\J	.	8dd#\ 8ff#	.	.	.	.	.	.	.	.	.	.	.	.	.	.	.	.	.	.
8BB\L	.	((4dd#\ 4ff#	.	.	.	.	.	.	.	.	.	.	.	.	.	.	.	.	.	.
8F#\	.	.	.	.	.	.	.	.	.	.	.	.	.	.	.	.	.	.	.	.
8B\J)	.	8b\)) 8dd#	.	.	.	.	.	.	.	.	.	.	.	.	.	.	.	.	.	.
=149	=149	=149	=149	=149	=149	=149	=149	=149	=149	=149	=149	=149	=149	=149	=149	=149	=149	=149	=149	=149
(8BB\L	.	8b\ 8dd#	.	.	2.d#/	.	.	.	2.b\	.	.	.	2.ff#\	.	.	.	2.ryy	.	.	.
8F#\	.	8r	.	.	.	.	.	.	.	.	.	.	.	.	.	.	.	.	.	.
8B\J	.	8dd#\ 8bb	.	.	.	.	.	.	.	.	.	.	.	.	.	.	.	.	.	.
8BB\L	.	(4dd#\ 4bb	.	.	.	.	.	.	.	.	.	.	.	.	.	.	.	.	.	.
8F#\	.	.	.	.	.	.	.	.	.	.	.	.	.	.	.	.	.	.	.	.
8B\J)	.	8dd#\) 8ff#	.	.	.	.	.	.	.	.	.	.	.	.	.	.	.	.	.	.
!!LO:LB:g=original	!	!	!	!	!	!	!	!	!	!	!	!	!	!	!	!	!	!	!	!
=150	=150	=150	=150	=150	=150	=150	=150	=150	=150	=150	=150	=150	=150	=150	=150	=150	=150	=150	=150	=150
(8BB\L	.	4dd#\ 4ff#	.	.	2.f#/	.	.	.	2.b\	.	.	.	2.dd#\	.	.	.	2.ryy	.	.	.
8F#\	.	.	.	.	.	.	.	.	.	.	.	.	.	.	.	.	.	.	.	.
8B\J	.	8ff#'\ 8ddd#	.	.	.	.	.	.	.	.	.	.	.	.	.	.	.	.	.	.
8BB\L	.	(4ff#\ 4ddd#	.	.	.	.	.	.	.	.	.	.	.	.	.	.	.	.	.	.
8F#\	.	.	.	.	.	.	.	.	.	.	.	.	.	.	.	.	.	.	.	.
8B\J)	.	8dd#\) 8bb	.	.	.	.	.	.	.	.	.	.	.	.	.	.	.	.	.	.
=151	=151	=151	=151	=151	=151	=151	=151	=151	=151	=151	=151	=151	=151	=151	=151	=151	=151	=151	=151	=151
(8BB\L	.	(8dd#\L 8bb	.	.	2.B/	.	.	.	2.d#/	.	.	.	2.f#/	.	.	.	2.ryy	.	.	.
8F#\	.	8ff#\	.	.	.	.	.	.	.	.	.	.	.	.	.	.	.	.	.	.
8B\J	.	8bb\J	.	.	.	.	.	.	.	.	.	.	.	.	.	.	.	.	.	.
*clefG2	*	*	*	*	*	*	*	*	*	*	*	*	*	*	*	*	*	*	*	*
8d#/L	.	8ddd#\L	.	.	.	.	.	.	.	.	.	.	.	.	.	.	.	.	.	.
8f#/	.	8fff#\	.	.	.	.	.	.	.	.	.	.	.	.	.	.	.	.	.	.
8b/J)	.	8ddd#\J)	.	.	.	.	.	.	.	.	.	.	.	.	.	.	.	.	.	.
*clefF4	*	*	*	*	*	*	*	*	*	*	*	*	*	*	*	*	*	*	*	*
=152	=152	=152	=152	=152	=152	=152	=152	=152	=152	=152	=152	=152	=152	=152	=152	=152	=152	=152	=152	=152
!	!	!	!	!	!LO:TX:b:t=(braminki odchodzą) (le Bramine escono)	!	!	!	!	!	!	!	!	!	!	!	!	!	!	!
4BBB/ 4BB	.	2.bbTT\	.	.	4B/)	.	.	.	4d#/)	.	.	.	4b\)	.	.	.	2.ryy	.	.	.
8r	.	.	.	.	8r	.	.	.	8r	.	.	.	8r	.	.	.	.	.	.	.
!LO:TX:a:t=Arm.	!	!	!	!	!	!	!	!	!	!	!	!	!	!	!	!	!	!	!	!
(((4.G#\ [4.B 4.e	.	.	.	.	4r	.	.	.	4r	.	.	.	4r	.	.	.	.	.	.	.
.	.	.	.	.	8r	.	.	.	8r	.	.	.	8r	.	.	.	.	.	.	.
=153	=153	=153	=153	=153	=153	=153	=153	=153	=153	=153	=153	=153	=153	=153	=153	=153	=153	=153	=153	=153
4.F#\))) 4.B] 4.d#	.	2.bbTTT\	.	.	2.r	.	.	.	2.r	.	.	.	2.r	.	.	.	2.ryy	.	.	.
((4.E\ 4.G# [4.B	.	.	.	.	.	.	.	.	.	.	.	.	.	.	.	.	.	.	.	.
=154	=154	=154	=154	=154	=154	=154	=154	=154	=154	=154	=154	=154	=154	=154	=154	=154	=154	=154	=154	=154
4.D#\)) 4.F# 4.B]	.	2.bbTTT\	.	.	2.r	.	.	.	2.r	.	.	.	2.r	.	.	.	2.ryy	.	.	.
([4.BB\ 4.E 4.G#	.	.	.	.	.	.	.	.	.	.	.	.	.	.	.	.	.	.	.	.
=155	=155	=155	=155	=155	=155	=155	=155	=155	=155	=155	=155	=155	=155	=155	=155	=155	=155	=155	=155	=155
4.BB/]) 4.D# 4.F#	.	2.bbTTT\	.	.	2.r	.	.	.	2.r	.	.	.	2.r	.	.	.	2.ryy	.	.	.
4.FF#/ 4.BB 4.D#	.	.	.	.	.	.	.	.	.	.	.	.	.	.	.	.	.	.	.	.
.	.	16qqaa#X/LL	.	.	.	.	.	.	.	.	.	.	.	.	.	.	.	.	.	.
.	.	16qqbb/JJ	.	.	.	.	.	.	.	.	.	.	.	.	.	.	.	.	.	.
=156	=156	=156	=156	=156	=156	=156	=156	=156	=156	=156	=156	=156	=156	=156	=156	=156	=156	=156	=156	=156
2.BBB;</ 2.FF# 2.D#	.	4b\	.	.	2.r	.	.	.	2.r	.	.	.	2.r	.	.	.	2.ryy	.	.	.
.	.	8r	.	.	.	.	.	.	.	.	.	.	.	.	.	.	.	.	.	.
.	.	4r;	.	.	.	.	.	.	.	.	.	.	.	.	.	.	.	.	.	.
.	.	8r	.	.	.	.	.	.	.	.	.	.	.	.	.	.	.	.	.	.
=157||	=157||	=157||	=157||	=157||	=157||	=157||	=157||	=157||	=157||	=157||	=157||	=157||	=157||	=157||	=157||	=157||	=157||	=157||	=157||	=157||
*k[f#]	*	*k[f#]	*	*	*k[f#]	*	*	*	*k[f#]	*	*	*	*k[f#]	*	*	*	*k[f#]	*	*	*
*M4/4	*	*M4/4	*	*	*M4/4	*	*	*	*M4/4	*	*	*	*M4/4	*	*	*	*M4/4	*	*	*
*met(c)	*	*met(c)	*	*	*met(c)	*	*	*	*met(c)	*	*	*	*met(c)	*	*	*	*met(c)	*	*	*
2ryy	.	2ryy	.	.	2ryy	.	.	.	2ryy	.	.	.	2ryy	.	.	.	2ryy	.	.	.
4ryy	.	4ryy	.	.	4ryy	.	.	.	4ryy	.	.	.	4ryy	.	.	.	4ryy	.	.	.
4ryy	.	4ryy	.	.	4ryy	.	.	.	4ryy	.	.	.	4ryy	.	.	.	4ryy	.	.	.
=	=	=	=	=	=	=	=	=	=	=	=	=	=	=	=	=	=	=	=	=
*-	*-	*-	*-	*-	*-	*-	*-	*-	*-	*-	*-	*-	*-	*-	*-	*-	*-	*-	*-	*-
!!!system-decoration: s1,s2[(s3,s4)]{(s5,s6)}
!!!RDF**kern: N = linked
!!!RDF**kern: > = above
!!!RDF**kern: < = below
!!!ENC: Andrzej Gręziak
!!!END: 2022-08-31
!!!ENC: Natalia Wrzos
!!!END: 2022-10-11
